!!!!SEGMENT: pl-cz--ii-121--002_klakowski--missa-in-dis-gloria.krn
!!!cenid: 18xx:879
!!!COM: Klakowski
!!!COM-rismID:
!!!CDT: ~1800-~1899
!!!CNT:
!!!OPR: Missa in Dis
!!!OTL: Gloria
!!!OMV: 002
!!!PDT:
!!!AGN: Sacred; Mass
!!!SMS-siglum: PL-CZ
!!!SMS-shelfmark: II-121
!!!SMS-shelfwork: 001-002 M
!!!SMS-variant:
!!!SMS-altvar:
!!!NIFC-rismSourceID: 300000590
!!!NIFC-islandoraID: pl-cz:32114
!!!URL-pdf-islandora: https://repozytorium.nifc.pl/islandora/object/pl-cz%3A32114/datastream/PDF/view
!!!URL-scan:
!!!ONB-nifc: UWAGA: części Mszy: Kyrie, Gloria, Credo, Et incarnatus, Et resurrexit, Sanctus, Benedictus, Agnus Dei, Dona nobis
!!!AIN: 1 alto 1 bass 2 clars 2 cor 1 organ 1 soprn 1 tenor 1 viola 2 violn
!!!key: E-
**kern	**fba	**dynam	**kern	**dynam	**kern	**dynam	**kern	**dynam	**kern	**text	**kern	**text	**kern	**text	**kern	**text	**kern	**dynam	**kern	**dynam	**kern	**dynam	**kern	**dynam
*	*	*	*group4	*	*group4	*	*group4	*	*group3	*	*group3	*	*group3	*	*group3	*	*group2	*	*group2	*	*group1	*	*group1	*
*part12	*part12	*part12	*part11	*part11	*part10	*part10	*part9	*part9	*part8	*part8	*part7	*part7	*part6	*part6	*part5	*part5	*part4	*part4	*part3	*part3	*part2	*part2	*part1	*part1
*staff12	*	*	*staff11	*	*staff10	*	*staff9	*	*staff8	*staff8	*staff7	*staff7	*staff6	*staff6	*staff5	*staff5	*staff4	*	*staff3	*	*staff2	*	*staff1	*
*I"Organo	*	*	*I"Alto, Viola	*	*I"Violino Secondo	*	*I"Violino Primo,	*	*I"Baſso,	*	*I"Tenore,	*	*I"Alto	*	*I"Canto	*	*I"Corno Secundo in Diſ.	*	*I"Corno Primo in D.ſ	*	*I"Clarinetto Secundo	*	*I"Clarinetto Primo in B,	*
*I'org	*	*	*I'a-vla	*	*I'vl 2	*	*I'vl 1	*	*I'B	*	*I'T	*	*I'A	*	*I'S	*	*I'cor 2 in E|b	*	*I'cor 1 in E|b	*	*I'cl 2	*	*I'cl 1 in B|b	*
*Iorgan	*	*	*Iviola	*	*Ivioln	*	*Ivioln	*	*Ibass	*	*Itenor	*	*Ialto	*	*Isoprn	*	*Icor	*	*Icor	*	*Iclars	*	*Iclars	*
*ICklav	*	*	*ICstr	*	*ICstr	*	*ICstr	*	*ICvox	*	*ICvox	*	*ICvox	*	*ICvox	*	*ICbras	*	*ICbras	*	*ICww	*	*ICww	*
*IGcont	*	*	*	*	*	*	*	*	*IGcoro	*	*IGcoro	*	*IGcoro	*	*IGcoro	*	*	*	*	*	*	*	*	*
*clefF4	*	*	*clefC3	*	*clefG2	*	*clefG2	*	*clefF4	*	*clefC4	*	*clefC3	*	*clefC1	*	*clefG2	*	*clefG2	*	*clefG2	*	*clefG2	*
*	*	*	*	*	*	*	*	*	*	*	*	*	*	*	*	*	*ITrd5c9	*	*ITrd5c9	*	*ITrd1c2	*	*ITrd1c2	*
*k[b-e-a-]	*	*	*k[b-e-a-]	*	*k[b-a-e-]	*	*k[b-e-a-]	*	*k[b-e-a-]	*	*k[b-e-a-]	*	*k[b-e-a-]	*	*k[b-e-a-]	*	*k[b-e-a-]	*	*k[b-e-a-]	*	*k[b-e-a-]	*	*k[b-e-a-]	*
*E-:	*	*	*E-:	*	*E-:	*	*E-:	*	*E-:	*	*E-:	*	*E-:	*	*E-:	*	*E-:	*	*E-:	*	*E-:	*	*E-:	*
*M4/4	*	*	*M4/4	*	*M4/4	*	*M4/4	*	*M4/4	*	*M4/4	*	*M4/4	*	*M4/4	*	*M4/4	*	*M4/4	*	*M4/4	*	*M4/4	*
*met(c)	*	*	*met(c)	*	*met(c)	*	*met(c)	*	*met(c)	*	*met(c)	*	*met(c)	*	*met(c)	*	*met(c)	*	*met(c)	*	*met(c)	*	*met(c)	*
*all\right	*	*	*all\right	*	*all\right	*	*all\right	*	*all\right	*	*all\right	*	*all\right	*	*all\right	*	*all\right	*	*all\right	*	*all\right	*	*all\right	*
=1	=1	=1	=1	=1	=1	=1	=1	=1	=1	=1	=1	=1	=1	=1	=1	=1	=1	=1	=1	=1	=1	=1	=1	=1
!	!	!	!LO:TX:t=P:problem=kolejność znaków B- e- a-	!	!	!	!	!	!	!	!	!	!	!	!LO:TX:t=P:problem=kolejność znaków b- ee- a-	!	!	!	!	!	!	!	!	!
!LO:TX:a:B:t=Allegro Spiritoso	!	!LO:DY:rj	!LO:TX:a:B:t=allo\nSpiritu	!LO:DY:rj	!LO:TX:a:B:t=allo Spirituoso	!	!LO:TX:a:B:t=Allegro Spirituoso	!LO:DY:rj	!LO:TX:a:B:t=Allegro	!	!LO:TX:a:B:t=Allegro Spiri	!	!LO:TX:a:B:t=Allo	!	!LO:TX:a:B:t=Allo	!	!LO:TX:a:B:t=allo Spiri	!	!LO:TX:a:B:t=Allo Spiri	!	!LO:TX:a:B:t=allo Spiri	!	!LO:TX:a:B:t=allo	!
4E-\	.	f	4E-/	f	4e- 4G/	.	4e- 4G/	f	(4E-\	Glo-	(4e-\	Glo-	(4e-\	Glo-	(4ee-\	Glo-	4E-/	.	4e-\	.	4e-/	.	4ee-\	.
8.G|\L	.	.	8.G/L	.	8.g/L	.	8.g/L	.	8.G\)	.	8.g\)	.	8.g\)	.	8.gg\)	.	8.G/L	f	8.g\L	.	8.g/L	.	8.gg\L	.
16E-\Jk|	.	.	16E-/Jk	.	16e-/Jk	.	16e-/Jk	.	16E-\	-ri-	16e-\	-ri-	16e-\	-ri-	16ee-\	-ri-	16E-/Jk	.	16e-\Jk	.	16e-/Jk	.	16ee-\Jk	.
4B-\|	.	.	4B-/	.	4b-/	.	4b-\	.	4B-\	-a	4B-\	-a	4b-\	-a	4b-\	-a	4B-/	.	4b-\	.	4b-\	.	4bb-\	.
4r	.	.	4r	.	8r	.	8r	.	4r	.	4r	.	4r	.	4r	.	4r	.	4r	.	4r	.	4r	.
.	.	.	.	.	8b-/	.	8b-\	p	.	.	.	.	.	.	.	.	.	.	.	.	.	.	.	.
=2	=2	=2	=2	=2	=2	=2	=2	=2	=2	=2	=2	=2	=2	=2	=2	=2	=2	=2	=2	=2	=2	=2	=2	=2
!LO:TX:a:t=1	!	!	!LO:TX:a:t=1	!	!	!	!	!	!	!	!	!	!	!	!	!	!	!	!	!	!	!	!	!
1r	.	.	1r	.	8a-/L|	p	8cc\L|	.	1r	.	1r	.	1r	.	1r	.	1r	.	1r	.	1r	.	1r	.
.	.	.	.	.	8g/|	.	8b-\|	.	.	.	.	.	.	.	.	.	.	.	.	.	.	.	.	.
.	.	.	.	.	8a-/|	.	8cc\|	.	.	.	.	.	.	.	.	.	.	.	.	.	.	.	.	.
.	.	.	.	.	8g/J|	.	8b-\J|	.	.	.	.	.	.	.	.	.	.	.	.	.	.	.	.	.
.	.	.	.	.	8a-/L|	.	8cc\L|	.	.	.	.	.	.	.	.	.	.	.	.	.	.	.	.	.
.	.	.	.	.	8g/|	.	8b-\|	.	.	.	.	.	.	.	.	.	.	.	.	.	.	.	.	.
.	.	.	.	.	8a-/|	.	8cc\|	.	.	.	.	.	.	.	.	.	.	.	.	.	.	.	.	.
.	.	.	.	.	8f/J|	.	8dd\J|	.	.	.	.	.	.	.	.	.	.	.	.	.	.	.	.	.
=3	=3	=3	=3	=3	=3	=3	=3	=3	=3	=3	=3	=3	=3	=3	=3	=3	=3	=3	=3	=3	=3	=3	=3	=3
4E-\	.	.	4E-/	.	4g/	.	4ee-\	.	(4E-\	Glo-	(4e-\	Glo-	(4e-\	Glo-	(4ee-\	Glo-	4E-/	.	4e-\	.	4e-/	.	4ee-\	.
8.G\L|	.	.	8.G/L	.	8.g/L	f	8.g/L	f	8.G\)	.	8.g\)	.	8.g\)	.	8.gg\)	.	8.G/L	.	8.g\L	.	8.g/L	.	8.gg\L	.
16E-\Jk|	.	.	16E-/Jk	.	16e-/Jk	.	16e-/Jk	.	16E-\	-ri-	16e-\	-ri-	16e-\	-ri-	16ee-\	-ri-	16E-/Jk	.	16e-\Jk	.	16e-/Jk	.	16ee-\Jk	.
!	!	!	!	!	!	!	!	!	!	!	!	!	!LO:LB:g=original	!	!	!	!	!	!	!	!	!	!	!
4B-\|	.	.	4B-/	.	4b-/	.	4b-\	.	4B-\	-a	4B-\	-a	4b-\	-a	4b-\	-a	4B-/	.	4b-\	.	4b-/	.	4bb-\	.
4r	.	.	4r	.	8r	.	8r	.	4r	.	4r	.	4r	.	4r	.	4r	.	4r	.	4r	.	4r	.
!	!	!	!	!	!	!	!	!LO:DY:t=p.	!	!	!	!	!	!	!	!	!	!	!	!	!	!	!	!
.	.	.	.	.	8g/	p	8b-\	p	.	.	.	.	.	.	.	.	.	.	.	.	.	.	.	.
!	!	!	!	!	!	!	!	!	!	!	!	!	!	!	!	!	!	!	!	!	!	!	!LO:LB:g=original	!
=4	=4	=4	=4	=4	=4	=4	=4	=4	=4	=4	=4	=4	=4	=4	=4	=4	=4	=4	=4	=4	=4	=4	=4	=4
!LO:TX:a:t=1	!	!	!	!	!	!	!	!	!	!	!LO:TX:a:t=1	!	!	!	!	!	!	!	!	!	!	!	!LO:TX:a:t=1	!
1r	.	.	1r	.	8a-/L|	.	8cc\L|	.	1r	.	1r	.	1r	.	1r	.	1r	.	1r	.	1r	.	1r	.
.	.	.	.	.	8g/|	.	8b-\|	.	.	.	.	.	.	.	.	.	.	.	.	.	.	.	.	.
.	.	.	.	.	8a-/|	.	8cc\|	.	.	.	.	.	.	.	.	.	.	.	.	.	.	.	.	.
.	.	.	.	.	8g/J|	.	8b-\J|	.	.	.	.	.	.	.	.	.	.	.	.	.	.	.	.	.
.	.	.	.	.	8a-/L|	.	8cc\L|	.	.	.	.	.	.	.	.	.	.	.	.	.	.	.	.	.
.	.	.	.	.	8g/|	.	8b-\|	.	.	.	.	.	.	.	.	.	.	.	.	.	.	.	.	.
.	.	.	.	.	8a-/|	.	8cc\|	.	.	.	.	.	.	.	.	.	.	.	.	.	.	.	.	.
.	.	.	.	.	8f/J|	.	8dd\J|	.	.	.	.	.	.	.	.	.	.	.	.	.	.	.	.	.
=5	=5	=5	=5	=5	=5	=5	=5	=5	=5	=5	=5	=5	=5	=5	=5	=5	=5	=5	=5	=5	=5	=5	=5	=5
*2\right	*	*	*	*	*	*	*	*	*	*	*	*	*	*	*	*	*	*	*	*	*	*	*	*
*tremolo	*	*	*tremolo	*	*tremolo	*	*	*	*	*	*	*	*	*	*	*	*	*	*2\right	*	*	*	*	*
!	!	!	!	!LO:DY:t=f&colon;	!	!	!	!	!	!	!	!	!	!	!	!	!	!LO:DY:rj	!	!	!	!	!	!
8E-\L	5 3	.	8B-/L	f	16B-/LL	f	4ee-\	.	4E-\	glo-	4e-\	Glo-	4b-\	Glo-	4ee-\	Glo-	2G/	f	2e-\	.	1ee-	f	1gg	.
.	.	.	.	.	16B-/	.	.	.	.	.	.	.	.	.	.	.	.	.	.	.	.	.	.	.
8E-\	.	.	8B-/	.	16B-/	.	.	.	.	.	.	.	.	.	.	.	.	.	.	.	.	.	.	.
.	.	.	.	.	16B-/	.	.	.	.	.	.	.	.	.	.	.	.	.	.	.	.	.	.	.
!	!	!	!	!	!	!	!	!LO:DY:t=f.	!	!	!	!	!	!	!	!	!	!	!	!	!	!	!	!
8E-\	.	.	8B-/	.	16B-/	.	8.gg\L	f	8.E-\	-ri-	8.e-\	-ri-	8.b-\	-ri-	8.gg\	-ri-	.	.	.	.	.	.	.	.
.	.	.	.	.	16B-/	.	.	.	.	.	.	.	.	.	.	.	.	.	.	.	.	.	.	.
8E-\J	.	.	8B-/J	.	16B-/	.	.	.	.	.	.	.	.	.	.	.	.	.	.	.	.	.	.	.
.	.	.	.	.	16B-/JJ	.	16ee-\Jk	.	16E-\	-a	16e-\	-a	16b-\	-a	16ee-\	-a	.	.	.	.	.	.	.	.
8E-\L	.	.	8B-/L	.	16B-/LL	.	4.bb-\	.	4E-\	in	4e-\	in	4b-\	in	4gg\	in	2e-/	.	2g\	f	.	.	.	.
.	.	.	.	.	16B-/	.	.	.	.	.	.	.	.	.	.	.	.	.	.	.	.	.	.	.
8E-\	.	.	8B-/	.	16B-/	.	.	.	.	.	.	.	.	.	.	.	.	.	.	.	.	.	.	.
.	.	.	.	.	16B-/	.	.	.	.	.	.	.	.	.	.	.	.	.	.	.	.	.	.	.
8E-\	.	.	8B-/	.	16B-/	.	.	.	4E-\	ex-	4e-\	ex-	4b-\	ex-	4gg\	ex-	.	.	.	.	.	.	.	.
.	.	.	.	.	16B-/	.	.	.	.	.	.	.	.	.	.	.	.	.	.	.	.	.	.	.
8E-\J	.	.	8B-/J	.	16B-/	.	8gg\	.	.	.	.	.	.	.	.	.	.	.	.	.	.	.	.	.
.	.	.	.	.	16B-/JJ	.	.	.	.	.	.	.	.	.	.	.	.	.	.	.	.	.	.	.
!	!	!	!	!	!LO:LB:g=original	!	!	!	!	!	!LO:LB:g=original	!	!	!	!	!	!LO:LB:g=original	!	!	!	!	!	!	!
=6	=6	=6	=6	=6	=6	=6	=6	=6	=6	=6	=6	=6	=6	=6	=6	=6	=6	=6	=6	=6	=6	=6	=6	=6
*	*	*	*	*	*	*	*	*	*	*	*	*	*	*	*	*	*	*	*	*	*2\right	*	*2\right	*
8D\L	6	.	8F/L	.	16B-/LL	.	8gg\L	.	4D/	-cel-	4B-\	-cel-	4b-\	-cel-	(8gg\L	-cel-	4B-/	.	4f\	.	2dd\	.	2ff\	.
.	.	.	.	.	16B-/	.	.	.	.	.	.	.	.	.	.	.	.	.	.	.	.	.	.	.
8D\	.	.	8F/	.	16B-/	.	8ff\J	.	.	.	.	.	.	.	8ff\J)	.	.	.	.	.	.	.	.	.
.	.	.	.	.	16B-/	.	.	.	.	.	.	.	.	.	.	.	.	.	.	.	.	.	.	.
*	*	*	*	*	*	*	*2\right	*	*	*	*	*	*	*	*	*	*	*	*	*	*	*	*	*
8D\	.	.	8F/	.	16B-/	.	2ff\	.	4D/	-siſ	4B-\	-siſ	4b-\	-siſ	4ff\	-siſ	2.B-/	.	2f\	.	.	.	.	.
.	.	.	.	.	16B-/	.	.	.	.	.	.	.	.	.	.	.	.	.	.	.	.	.	.	.
8D\J	.	.	8F/J	.	16B-/	.	.	.	.	.	.	.	.	.	.	.	.	.	.	.	.	.	.	.
.	.	.	.	.	16B-/JJ	.	.	.	.	.	.	.	.	.	.	.	.	.	.	.	.	.	.	.
8BB-/L	.	.	8F/L	.	16B-/LL	.	.	.	4BB-/	De-	4B-\	De-	4dd\	De-	4ff\	De-	.	.	.	.	2b-\	.	2dd\	.
.	.	.	.	.	16B-/	.	.	.	.	.	.	.	.	.	.	.	.	.	.	.	.	.	.	.
8BB-/	.	.	8F/	.	16B-/	.	.	.	.	.	.	.	.	.	.	.	.	.	.	.	.	.	.	.
.	.	.	.	.	16B-/	.	.	.	.	.	.	.	.	.	.	.	.	.	.	.	.	.	.	.
8BB-/	.	.	8F/	.	16B-/	.	16ee-\LL	.	4BB-/	-o	4B-\	-o	4dd\	-o	4ff\	-o	.	.	4f\	.	.	.	.	.
.	.	.	.	.	16B-/	.	16dd\	.	.	.	.	.	.	.	.	.	.	.	.	.	.	.	.	.
8BB-/J	.	.	8F/J	.	16B-/	.	16cc\	.	.	.	.	.	.	.	.	.	.	.	.	.	.	.	.	.
.	.	.	.	.	16B-/JJ	.	16b-\JJ	.	.	.	.	.	.	.	.	.	.	.	.	.	.	.	.	.
!	!	!	!LO:LB:g=original	!	!	!	!LO:LB:g=original	!	!LO:LB:g=original	!	!	!	!	!	!	!	!	!	!	!	!	!	!	!
=7	=7	=7	=7	=7	=7	=7	=7	=7	=7	=7	=7	=7	=7	=7	=7	=7	=7	=7	=7	=7	=7	=7	=7	=7
8F\L	5_ n	.	8C/L	.	16c/LL	.	8an/L	.	4.F\	et	4.An/	et	4.cc\	et	4.ee-\	Et	1f	.	1f	.	2a\	.	2cc\	.
.	.	.	.	.	16c/	.	.	.	.	.	.	.	.	.	.	.	.	.	.	.	.	.	.	.
8F\	.	.	8C/	.	16c/	.	8f/J	.	.	.	.	.	.	.	.	.	.	.	.	.	.	.	.	.
.	.	.	.	.	16c/	.	.	.	.	.	.	.	.	.	.	.	.	.	.	.	.	.	.	.
8F\	.	.	8C/	.	16c/	.	4.ee-\	.	.	.	.	.	.	.	.	.	.	.	.	.	.	.	.	.
.	.	.	.	.	16c/	.	.	.	.	.	.	.	.	.	.	.	.	.	.	.	.	.	.	.
8F\J	.	.	8C/J	.	16c/	.	.	.	8F\	in	8A/	in	8cc\	in	8ee-\	in	.	.	.	.	.	.	.	.
.	.	.	.	.	16c/JJ	.	.	.	.	.	.	.	.	.	.	.	.	.	.	.	.	.	.	.
8An\L	.	.	8C/L	.	16c/LL	.	.	.	4An\	ter-	4F/	ter-	4cc\	ter-	4ee-\	ter-	.	.	.	.	2cc\	.	2ee-\	.
.	.	.	.	.	16c/	.	.	.	.	.	.	.	.	.	.	.	.	.	.	.	.	.	.	.
8A\	.	.	8C/	.	16c/	.	(16cc\LL	.	.	.	.	.	.	.	.	.	.	.	.	.	.	.	.	.
.	.	.	.	.	16c/	.	16a\JJ)	.	.	.	.	.	.	.	.	.	.	.	.	.	.	.	.	.
8A\	.	.	8C/	.	16c/	.	8ff\L	.	4A\	-ra	4F/	-ra	4cc\	-ra	4ee-\	-ra	.	.	.	.	.	.	.	.
.	.	.	.	.	16c/	.	.	.	.	.	.	.	.	.	.	.	.	.	.	.	.	.	.	.
8A\J	.	.	8C/J	.	16c/	.	8ee-\J	.	.	.	.	.	.	.	.	.	.	.	.	.	.	.	.	.
.	.	.	.	.	16c/JJ	.	.	.	.	.	.	.	.	.	.	.	.	.	.	.	.	.	.	.
*Xtremolo	*	*	*	*	*Xtremolo	*	*	*	*	*	*	*	*	*	*	*	*	*	*	*	*	*	*	*
!	!	!	!	!	!	!	!	!	!	!	!	!	!	!	!	!	!	!	!LO:LB:g=original	!	!LO:LB:g=original	!	!	!
=8	=8	=8	=8	=8	=8	=8	=8	=8	=8	=8	=8	=8	=8	=8	=8	=8	=8	=8	=8	=8	=8	=8	=8	=8
!LO:TX:t=P:problem=mixed beam	!	!	!	!	!	!	!	!	!	!	!	!	!	!	!	!	!	!	!	!	!	!	!	!
8B-\L	5_ 3_	.	8F/L	.	(16d/LL	.	(8dd\L	.	4B-\	pax	4F/	pax	4b-\	pax,	4dd\	pax	2B-/	.	2f\	.	2b-\	.	2dd\	.
.	.	.	.	.	16f/)	.	.	.	.	.	.	.	.	.	.	.	.	.	.	.	.	.	.	.
8BB-/	.	.	8F/	.	(16d/	.	8b-\)	.	.	.	.	.	.	.	.	.	.	.	.	.	.	.	.	.
.	.	.	.	.	16f/JJ)	.	.	.	.	.	.	.	.	.	.	.	.	.	.	.	.	.	.	.
8BB-/	.	.	8F/	.	(16d/LL	.	8b-\|	.	4r	.	4r	.	4r	.	4r	.	.	.	.	.	.	.	.	.
.	.	.	.	.	16f/)	.	.	.	.	.	.	.	.	.	.	.	.	.	.	.	.	.	.	.
8BB-/J	.	.	8F/J	.	(16d/	.	8b-\J|	.	.	.	.	.	.	.	.	.	.	.	.	.	.	.	.	.
.	.	.	.	.	16f/JJ)	.	.	.	.	.	.	.	.	.	.	.	.	.	.	.	.	.	.	.
*	*	*	*Xtremolo	*	*	*	*	*	*	*	*	*	*	*	*	*	*	*	*	*	*	*	*	*
4BB-/	.	.	4F/	.	4d/	.	8b-\L|	.	2r	.	2r	.	2r	.	2r	.	4B-/	.	4f\	.	4b-\	.	4dd\	.
.	.	.	.	.	.	.	(16cc\L	.	.	.	.	.	.	.	.	.	.	.	.	.	.	.	.	.
.	.	.	.	.	.	.	16dd\JJ)	.	.	.	.	.	.	.	.	.	.	.	.	.	.	.	.	.
4r	x	.	4r	.	4r	.	16ee-\LL|	.	.	.	.	.	.	.	.	.	4r	.	4r	.	4r	.	4r	.
.	.	.	.	.	.	.	16ff\|	.	.	.	.	.	.	.	.	.	.	.	.	.	.	.	.	.
.	.	.	.	.	.	.	16gg\|	.	.	.	.	.	.	.	.	.	.	.	.	.	.	.	.	.
.	.	.	.	.	.	.	16aa-X\JJ|	.	.	.	.	.	.	.	.	.	.	.	.	.	.	.	.	.
!	!	!	!	!	!	!	!	!	!	!	!	!	!LO:LB:g=original	!	!LO:LB:g=original	!	!	!	!	!	!	!	!	!
=9	=9	=9	=9	=9	=9	=9	=9	=9	=9	=9	=9	=9	=9	=9	=9	=9	=9	=9	=9	=9	=9	=9	=9	=9
*tremolo	*	*	*tremolo	*	*tremolo	*	*	*	*	*	*	*	*	*	*	*	*	*	*	*	*	*	*	*
8E-\L	5_ 3_	.	8B-/L	.	16B-/LL	.	(4.gg\	.	4E-\	pax	4e-\	pax	4b-\	pax	4gg\	pax	2G/	.	2e-\	.	1ee-	.	1gg	.
.	.	.	.	.	16B-/	.	.	.	.	.	.	.	.	.	.	.	.	.	.	.	.	.	.	.
8E-\	.	.	8B-/	.	16B-/	.	.	.	.	.	.	.	.	.	.	.	.	.	.	.	.	.	.	.
.	.	.	.	.	16B-/	.	.	.	.	.	.	.	.	.	.	.	.	.	.	.	.	.	.	.
8E-\	.	.	8B-/	.	16B-/	.	.	.	4E-\	ho-	4e-\	ho-	4b-\	ho-	4gg\	ho-	.	.	.	.	.	.	.	.
.	.	.	.	.	16B-/	.	.	.	.	.	.	.	.	.	.	.	.	.	.	.	.	.	.	.
8E-\J	.	.	8B-/J	.	16B-/	.	8ee-\)	.	.	.	.	.	.	.	.	.	.	.	.	.	.	.	.	.
.	.	.	.	.	16B-/JJ	.	.	.	.	.	.	.	.	.	.	.	.	.	.	.	.	.	.	.
*	*	*	*	*	*	*	*	*	*	*	*	*	*	*	*	*	*2\right	*	*	*	*	*	*	*
8E-\L	.	.	8B-/L	.	16B-/LL	.	4.bb-\	.	4E-\	-mi-	4e-\	-mi-	4b-\	-mi-	4gg\	-mi-	2e-\	.	2g\	.	.	.	.	.
.	.	.	.	.	16B-/	.	.	.	.	.	.	.	.	.	.	.	.	.	.	.	.	.	.	.
8E-\	.	.	8B-/	.	16B-/	.	.	.	.	.	.	.	.	.	.	.	.	.	.	.	.	.	.	.
.	.	.	.	.	16B-/	.	.	.	.	.	.	.	.	.	.	.	.	.	.	.	.	.	.	.
8E-\	.	.	8B-/	.	16B-/	.	.	.	8E-\	-ni-	8e-\	-ni-	8b-\	-ni-	8gg\	-ni-	.	.	.	.	.	.	.	.
.	.	.	.	.	16B-/	.	.	.	.	.	.	.	.	.	.	.	.	.	.	.	.	.	.	.
8E-\J	.	.	8B-/J	.	16B-/	.	8gg\	.	8E-\	-b(us)	8e-\	-b(us)	8b-\	-b(us)	8gg\	-b(us)	.	.	.	.	.	.	.	.
.	.	.	.	.	16B-/JJ	.	.	.	.	.	.	.	.	.	.	.	.	.	.	.	.	.	.	.
=10	=10	=10	=10	=10	=10	=10	=10	=10	=10	=10	=10	=10	=10	=10	=10	=10	=10	=10	=10	=10	=10	=10	=10	=10
*	*	*	*	*	*	*	*	*	*2\right	*	*2\right	*	*2\right	*	*2\right	*	*	*	*	*	*	*	*	*
8D\L	6_	.	8F/L	.	16B-/LL	.	8gg\L	.	2D\	bo-	2B-\	bo-	2b-\	bo-	2ff\	bo-	4B-/	.	4f\	.	2dd\	.	2ff\	.
.	.	.	.	.	16B-/	.	.	.	.	.	.	.	.	.	.	.	.	.	.	.	.	.	.	.
8D\	.	.	8F/	.	16B-/	.	8ff\J	.	.	.	.	.	.	.	.	.	.	.	.	.	.	.	.	.
.	.	.	.	.	16B-/	.	.	.	.	.	.	.	.	.	.	.	.	.	.	.	.	.	.	.
8D\	.	.	8F/	.	16B-/	.	2ff\	.	.	.	.	.	.	.	.	.	2B-/	.	2f\	.	.	.	.	.
.	.	.	.	.	16B-/	.	.	.	.	.	.	.	.	.	.	.	.	.	.	.	.	.	.	.
8D\J	.	.	8F/J	.	16B-/	.	.	.	.	.	.	.	.	.	.	.	.	.	.	.	.	.	.	.
.	.	.	.	.	16B-/JJ	.	.	.	.	.	.	.	.	.	.	.	.	.	.	.	.	.	.	.
!	!	!	!	!	!	!	!	!	!	!	!	!	!LO:SIC:v:s=2dd\\	!	!	!	!	!	!	!	!	!	!	!
8BB-\L	x	.	8F/L	.	16B-/LL	.	.	.	2B-\	-nae	2B-\	-nae	2cc\	-nae	2ff\	-nae	.	.	.	.	2b-\	.	2dd\	.
.	.	.	.	.	16B-/	.	.	.	.	.	.	.	.	.	.	.	.	.	.	.	.	.	.	.
8BB-\	.	.	8F/	.	16B-/	.	.	.	.	.	.	.	.	.	.	.	.	.	.	.	.	.	.	.
.	.	.	.	.	16B-/	.	.	.	.	.	.	.	.	.	.	.	.	.	.	.	.	.	.	.
8BB-\	.	.	8F/	.	16B-/	.	(16ee-\LL	.	.	.	.	.	.	.	.	.	4B-/	.	4f\	.	.	.	.	.
.	.	.	.	.	16B-/	.	16dd\	.	.	.	.	.	.	.	.	.	.	.	.	.	.	.	.	.
8BB-\J	.	.	8F/J	.	16B-/	.	16cc\	.	.	.	.	.	.	.	.	.	.	.	.	.	.	.	.	.
.	.	.	.	.	16B-/JJ	.	16b-\JJ)	.	.	.	.	.	.	.	.	.	.	.	.	.	.	.	.	.
=11	=11	=11	=11	=11	=11	=11	=11	=11	=11	=11	=11	=11	=11	=11	=11	=11	=11	=11	=11	=11	=11	=11	=11	=11
8F\L	5	.	8C/L	.	16c/LL	.	8an/L	.	4F\	vo-	4An/	vo-	4cc\	vo-	4ee-\	vo-	1f	.	1f	.	2a\	.	2cc\	.
.	.	.	.	.	16c/	.	.	.	.	.	.	.	.	.	.	.	.	.	.	.	.	.	.	.
8F\	.	.	8C/	.	16c/	.	8f/J	.	.	.	.	.	.	.	.	.	.	.	.	.	.	.	.	.
.	.	.	.	.	16c/	.	.	.	.	.	.	.	.	.	.	.	.	.	.	.	.	.	.	.
8F\	.	.	8C/	.	16c/	.	4.ee-\	.	4F\	-lun-	4A/	-lun-	4cc\	-lun-	4ee-\	-lun-	.	.	.	.	.	.	.	.
.	.	.	.	.	16c/	.	.	.	.	.	.	.	.	.	.	.	.	.	.	.	.	.	.	.
8F\J	.	.	8C/J	.	16c/	.	.	.	.	.	.	.	.	.	.	.	.	.	.	.	.	.	.	.
.	.	.	.	.	16c/JJ	.	.	.	.	.	.	.	.	.	.	.	.	.	.	.	.	.	.	.
!LO:LB:g=original	!	!	!	!	!	!	!	!	!	!	!	!	!	!	!	!	!	!	!	!	!	!	!	!
8An\L	6 5	.	8C/L	.	16c/LL	.	.	.	[4An\	-ta-	4F/	-ta-	[4cc\	-ta-	[4ee-\	-ta-	.	.	.	.	2cc\	.	2ee-\	.
.	.	.	.	.	16c/	.	.	.	.	.	.	.	.	.	.	.	.	.	.	.	.	.	.	.
8A\	.	.	8C/	.	16c/	.	(16cc\LL	.	.	.	.	.	.	.	.	.	.	.	.	.	.	.	.	.
.	.	.	.	.	16c/	.	16an\JJ)	.	.	.	.	.	.	.	.	.	.	.	.	.	.	.	.	.
8A\	.	.	8C/	.	16c/	.	8ff\L	.	4A\]	.	4F/	.	4cc\]	.	4ee-\]	.	.	.	.	.	.	.	.	.
.	.	.	.	.	16c/	.	.	.	.	.	.	.	.	.	.	.	.	.	.	.	.	.	.	.
8A\J	.	.	8C/J	.	16c/	.	8ee-\J	.	.	.	.	.	.	.	.	.	.	.	.	.	.	.	.	.
.	.	.	.	.	16c/JJ	.	.	.	.	.	.	.	.	.	.	.	.	.	.	.	.	.	.	.
*Xtremolo	*	*	*Xtremolo	*	*Xtremolo	*	*	*	*	*	*	*	*	*	*	*	*	*	*	*	*	*	*	*
=12	=12	=12	=12	=12	=12	=12	=12	=12	=12	=12	=12	=12	=12	=12	=12	=12	=12	=12	=12	=12	=12	=12	=12	=12
!LO:TX:t=P:problem=mixed beam	!	!	!	!	!	!	!	!	!	!	!	!	!	!	!	!	!	!	!	!	!	!	!	!
8B-\L	3	.	8F/L|	.	8d/L|	.	8dd\L	.	4B-\	-tiſ	4F/	-tiſ	4b-\	-tis,	4dd\	-tiſ	4B-/	.	4f\	.	4b-\	.	4dd\	.
8BB-/|	.	.	8B-/|	.	8B-/|	.	8b-\|	.	.	.	.	.	.	.	.	.	.	.	.	.	.	.	.	.
8C/|	.	.	8c/|	.	8c/|	.	8cc\|	.	4r	.	4r	.	4r	.	4r	.	4r	.	4r	.	4r	.	4r	.
8D/J|	.	.	8d/J|	.	8d/J|	.	8dd\J|	.	.	.	.	.	.	.	.	.	.	.	.	.	.	.	.	.
8E-\L|	.	.	8e-\L|	.	8e-/L|	.	8ee-\L|	.	2r	.	2r	.	2r	.	2r	.	2r	.	2r	.	2r	.	2r	.
8F\|	.	.	8f\|	.	8f/|	.	8ff\|	.	.	.	.	.	.	.	.	.	.	.	.	.	.	.	.	.
8G\|	.	.	8g\|	.	8g/|	.	8gg\|	.	.	.	.	.	.	.	.	.	.	.	.	.	.	.	.	.
8An\J|	.	.	8an\J|	.	8an/J|	.	8aan|\J	.	.	.	.	.	.	.	.	.	.	.	.	.	.	.	.	.
!	!	!	!	!	!	!	!LO:LB:g=original	!	!	!	!	!	!	!	!	!	!	!	!	!	!	!	!	!
=13	=13	=13	=13	=13	=13	=13	=13	=13	=13	=13	=13	=13	=13	=13	=13	=13	=13	=13	=13	=13	=13	=13	=13	=13
!	!	!	!	!	!	!	!	!	!	!	!LO:TX:a:t=7	!	!LO:TX:a:i:t=Solo	!	!LO:TX:a:i:t=Solo	!	!LO:TX:a:t=7	!	!LO:TX:a:t=7	!	!LO:TX:a:t=3	!	!LO:TX:a:t=3	!
4B-\|	.	.	4b-\	.	4b-\	p	4bb-\	.	00r	.	00r	.	4r	.	4r	.	00r	.	00r	.	0r	.	0r	.
!LO:TX:a:i:t=Solo	!	!	!	!	!	!	!	!LO:DY:t=p.	!	!	!	!	!	!	!	!	!	!	!	!	!	!	!	!
4BB-/|	.	.	4B-/	p	4dd\	.	4ff\	p	.	.	.	.	4dd\	Lau-	4ff\	Lau-	.	.	.	.	.	.	.	.
2r	.	.	2r	.	(8ee-\L	.	(8gg\L	.	.	.	.	.	8ee-\L	-da-	8gg\L	-da-	.	.	.	.	.	.	.	.
.	.	.	.	.	8dd\	.	8ff\)	.	.	.	.	.	8dd\	.	8ff\	.	.	.	.	.	.	.	.	.
.	.	.	.	.	8cc\	.	(8ee-\	.	.	.	.	.	8cc\	.	8ee-\	.	.	.	.	.	.	.	.	.
.	.	.	.	.	8b-\J)	.	8dd\J)	.	.	.	.	.	8b-\J	.	8dd\J	.	.	.	.	.	.	.	.	.
!	!	!	!LO:LB:g=original	!	!LO:LB:g=original	!	!	!	!	!	!	!	!LO:LB:g=original	!	!	!	!	!	!	!	!	!	!	!
=14	=14	=14	=14	=14	=14	=14	=14	=14	=14	=14	=14	=14	=14	=14	=14	=14	=14	=14	=14	=14	=14	=14	=14	=14
2F\	6 4	.	0r	.	8b-/L	.	(8dd\L	.	.	.	.	.	8b-\L	.	8dd\L	.	.	.	.	.	.	.	.	.
.	.	.	.	.	8an/	.	8cc\J)	.	.	.	.	.	8an\J	.	8cc\J	.	.	.	.	.	.	.	.	.
.	5 3	.	.	.	8f/	.	2cc\	.	.	.	.	.	2a\	-mus	2cc\	-mus	.	.	.	.	.	.	.	.
.	.	.	.	.	8f/J	.	.	.	.	.	.	.	.	.	.	.	.	.	.	.	.	.	.	.
*	*	*	*	*	*tremolo	*	*	*	*	*	*	*	*	*	*	*	*	*	*	*	*	*	*	*
4An\	6 5	.	.	.	8f/L	.	.	.	.	.	.	.	.	.	.	.	.	.	.	.	.	.	.	.
.	.	.	.	.	8f/	.	.	.	.	.	.	.	.	.	.	.	.	.	.	.	.	.	.	.
4B-\	3	.	.	.	8f/	.	4dd\	.	.	.	.	.	4b-\	te	4dd\	te	.	.	.	.	.	.	.	.
.	.	.	.	.	8f/J	.	.	.	.	.	.	.	.	.	.	.	.	.	.	.	.	.	.	.
=15	=15	=15	=15	=15	=15	=15	=15	=15	=15	=15	=15	=15	=15	=15	=15	=15	=15	=15	=15	=15	=15	=15	=15	=15
!LO:SIC:v:s=4An\	!	!	!	!	!	!	!	!	!	!	!	!	!	!	!	!	!	!	!	!	!	!	!	!
4A-\	5_ 3_	.	.	.	8f/L	.	4.ee-\	.	.	.	.	.	4.cc\	Be-	4.ee-\	be-	.	.	.	.	1r	.	1r	.
.	.	.	.	.	8f/	.	.	.	.	.	.	.	.	.	.	.	.	.	.	.	.	.	.	.
4F\	.	.	.	.	8f/	.	.	.	.	.	.	.	.	.	.	.	.	.	.	.	.	.	.	.
.	.	.	.	.	8f/J	.	8cc\	.	.	.	.	.	8an\	-ne-	8cc\	-ne-	.	.	.	.	.	.	.	.
*	*	*	*	*	*Xtremolo	*	*	*	*	*	*	*	*	*	*	*	*	*	*	*	*	*	*	*
2r	x	.	.	.	(8dd\L	.	(8ff\L	.	.	.	.	.	8dd\L	-di-	8ff\L	-di-	.	.	.	.	.	.	.	.
.	.	.	.	.	8cc\)	.	8ee-\	.	.	.	.	.	8cc\J	.	8ee-\J	.	.	.	.	.	.	.	.	.
.	.	.	.	.	(8b-\	.	8dd\	.	.	.	.	.	8b-\L	-ci-	8dd\L	-ci-	.	.	.	.	.	.	.	.
.	.	.	.	.	8an\J)	.	8cc\J)	.	.	.	.	.	8an\J	.	8cc\J	.	.	.	.	.	.	.	.	.
=16	=16	=16	=16	=16	=16	=16	=16	=16	=16	=16	=16	=16	=16	=16	=16	=16	=16	=16	=16	=16	=16	=16	=16	=16
!	!	!	!	!	!LO:SIC:v:s=(8an/L	!	!	!	!	!	!	!	!LO:SIC:v:s=8an\L	!	!	!	!	!	!	!	!LO:TX:a:i:t=Solo	!	!LO:TX:a:i:t=Solo	!
4r	.	.	1r	.	(8a-/L	.	(8cc#X\L	.	.	.	.	.	8a-\L	-mus	8cc#X\L	-mus	.	.	.	.	2r	.	2r	.
.	.	.	.	.	8b-/J)	.	8dd\J)	.	.	.	.	.	8b-\J	.	8dd\J	.	.	.	.	.	.	.	.	.
4B-\	.	.	.	.	4b-/	.	4dd\|	.	.	.	.	.	4b-\	te,	4dd\	te	.	.	.	.	.	.	.	.
!	!	!	!	!	!	!	!	!	!	!	!	!	!LO:TX:b:i:t=Verte Cito	!	!	!	!	!	!	!	!	!	!LO:PB:g=original	!
4BB-/	.	.	.	.	8r	.	8r	.	.	.	.	.	2r	.	2r	.	.	.	.	.	8r	.	8r	.
.	.	.	.	.	8d/L	.	(8f/L	.	.	.	.	.	.	.	.	.	.	.	.	.	8dd\L	.	8ff\L	.
!	!	!	!	!	!	!	!	!	!	!	!	!	!	!	!	!	!	!	!	!	!	!	!	!LO:DY:t=p.
4r	.	.	.	.	8e-/	.	8g/	.	.	.	.	.	.	.	.	.	.	.	.	.	8ee-\	.	8gg\	p
.	.	.	.	.	8c/J	.	8an/J)	.	.	.	.	.	.	.	.	.	.	.	.	.	8cc\J	.	8aa\J	.
!	!	!	!	!	!	!	!	!	!	!	!	!	!LO:PB:g=original	!	!LO:LB:g=original	!	!	!	!	!	!	!	!	!
=17	=17	=17	=17	=17	=17	=17	=17	=17	=17	=17	=17	=17	=17	=17	=17	=17	=17	=17	=17	=17	=17	=17	=17	=17
!LO:TX:t=P:problem=nadmiarowy takt w cl 2	!	!	!LO:TX:t=P:problem=nadmiarowy takt w cl 2	!	!LO:TX:t=P:problem=nadmiarowy takt w cl 2	!	!LO:TX:t=P:problem=nadmiarowy takt w cl 2	!	!LO:TX:t=P:problem=nadmiarowy takt w cl 2	!	!LO:TX:t=P:problem=nadmiarowy takt w cl 2	!	!LO:TX:t=P:problem=nadmiarowy takt w cl 2	!	!LO:TX:t=P:problem=nadmiarowy takt w cl 2	!	!LO:TX:t=P:problem=nadmiarowy takt w cl 2	!	!LO:TX:t=P:problem=nadmiarowy takt w cl 2	!	!LO:TX:t=P:problem=nadmiarowy takt	!	!LO:TX:t=P:problem=nadmiarowy takt w cl 2	!
1ryy	.	.	1ryy	.	1ryy	.	1ryy	.	1ryy	.	1ryy	.	1ryy	.	1ryy	.	1ryy	.	1ryy	.	1r	.	1ryy	.
=18	=18	=18	=18	=18	=18	=18	=18	=18	=18	=18	=18	=18	=18	=18	=18	=18	=18	=18	=18	=18	=18	=18	=18	=18
*	*	*	*2\right	*	*	*	*	*	*	*	*	*	*	*	*	*	*	*	*	*	*	*	*	*
*	*	*	*tremolo	*	*	*	*	*	*	*	*	*	*	*	*	*	*	*	*	*	*	*	*	*
!	!	!	!	!	!	!	!	!	!	!	!	!	!LO:TX:t=P:problem=kolejność znaków B- e- a-	!	!	!	!	!	!	!	!	!	!	!
4B-\	.	.	8f\L	.	4d/	.	4b-/	.	0r	.	0r	.	4r	.	4r	.	0r	.	0r	.	4dd\	p	4bb-\	.
.	.	.	8f\	.	.	.	.	.	.	.	.	.	.	.	.	.	.	.	.	.	.	.	.	.
4BB-/	.	.	8f\	.	4d/	.	4f/	.	.	.	.	.	8dd\	A-	8ff\	a-	.	.	.	.	4dd\	.	4ff\	.
.	.	.	8f\J	.	.	.	.	.	.	.	.	.	8dd\	-do-	8ff\	-do-	.	.	.	.	.	.	.	.
2r	.	.	8f\L	p	(8e-/L	.	(8g/L	.	.	.	.	.	8ee-\L	-ra-	8gg\L	-ra-	.	.	.	.	(8ee-\L	.	8gg\L	.
.	.	.	8f\	.	8d/)	.	8f/)	.	.	.	.	.	8dd\J	.	8ff\J	.	.	.	.	.	8dd\	.	8ff\	.
.	.	.	8f\	.	(8c/	.	(8e-/	.	.	.	.	.	8cc\	-mus	8ee-\L	-mus	.	.	.	.	8cc\	.	8ee-\	.
.	.	.	8f\J	.	8B-/J)	.	8d/J)	.	.	.	.	.	8b-\	.	8dd\J	.	.	.	.	.	8b-\J)	.	8dd\J	.
!	!	!	!	!	!	!	!	!	!	!	!	!	!	!	!	!	!	!	!	!	!LO:LB:g=original	!	!	!
=19	=19	=19	=19	=19	=19	=19	=19	=19	=19	=19	=19	=19	=19	=19	=19	=19	=19	=19	=19	=19	=19	=19	=19	=19
2F\	6 4	.	8f\L	.	(8B-/L	.	(8d/L	.	.	.	.	.	8b-\L	te	8dd\L	te	.	.	.	.	(8b-\L	.	8dd\L	.
.	.	.	8f\	.	8An/)	.	8c/J)	.	.	.	.	.	8an\J	.	8cc\J	.	.	.	.	.	8a\J)	.	8cc\J	.
.	5 3	.	8f\	.	8f/|	.	2c/	.	.	.	.	.	2a\	glo-	2cc\	glo-	.	.	.	.	2a\	.	2cc\	.
.	.	.	8f\J	.	8f/J|	.	.	.	.	.	.	.	.	.	.	.	.	.	.	.	.	.	.	.
*	*	*	*	*	*tremolo	*	*	*	*	*	*	*	*	*	*	*	*	*	*	*	*	*	*	*
4An\	6 5	.	8f\L	.	8f/L	.	.	.	.	.	.	.	.	.	.	.	.	.	.	.	.	.	.	.
.	.	.	8f\	.	8f/	.	.	.	.	.	.	.	.	.	.	.	.	.	.	.	.	.	.	.
4B-\	3	.	8f\	.	8f/	.	4d/	.	.	.	.	.	8b-\	-ri-	8dd\	-ri-	.	.	.	.	4b-\	.	4dd\	.
.	.	.	8f\J	.	8f/J	.	.	.	.	.	.	.	8b-\	-fi-	8dd\	-fi-	.	.	.	.	.	.	.	.
=20	=20	=20	=20	=20	=20	=20	=20	=20	=20	=20	=20	=20	=20	=20	=20	=20	=20	=20	=20	=20	=20	=20	=20	=20
4An\	5_ 3_	.	8f\L	.	8f/L	.	4.e-/	.	1r	.	1r	.	4.cc\	-ca-	4.ee-\	-ca-	1r	.	1r	.	4.cc\	.	4.ee-\	.
.	.	.	8f\	.	8f/	.	.	.	.	.	.	.	.	.	.	.	.	.	.	.	.	.	.	.
4F\	.	.	8f\	.	8f/	.	.	.	.	.	.	.	.	.	.	.	.	.	.	.	.	.	.	.
!	!	!	!	!	!	!	!	!	!	!	!	!	!LO:SIC:v:s=8an\	!	!	!	!	!	!	!	!	!	!	!
.	.	.	8f\J	.	8f/J	.	8c/	.	.	.	.	.	8a-\	.	8cc\	.	.	.	.	.	8a\	.	8cc\	.
*	*	*	*	*	*Xtremolo	*	*	*	*	*	*	*	*	*	*	*	*	*	*	*	*	*	*	*
!LO:TX:b:i:t=V. S.	!	!	!	!	!	!	!	!	!	!	!	!	!	!	!	!	!	!	!	!	!	!	!	!
2r	x	.	8f\L	.	8d/L	.	(8f/L	.	.	.	.	.	8dd\L	-mus	8ff\L	.	.	.	.	.	8dd\L	.	8ff\L	.
.	.	.	8f\	.	8c/	.	8e-/)	.	.	.	.	.	8cc\J	.	8ee-\J	.	.	.	.	.	8cc\	.	8ee-\	.
.	.	.	8f\	.	8B-/	.	(8d/	.	.	.	.	.	8b-\L	te	8dd\	-mus	.	.	.	.	8b-\	.	8dd\	.
!	!	!	!	!	!	!	!	!	!	!	!	!	!LO:SIC:v:s=8an\J	!	!	!	!	!	!	!	!	!	!	!
.	.	.	8f\J	.	8An/J	.	8c/J)	.	.	.	.	.	8a-\J	.	8cc\	te	.	.	.	.	8a\J	.	8cc\J	.
!LO:PB:g=original	!	!	!	!	!	!	!	!	!	!	!LO:LB:g=original	!	!	!	!	!	!LO:LB:g=original	!	!	!	!	!	!	!
=21	=21	=21	=21	=21	=21	=21	=21	=21	=21	=21	=21	=21	=21	=21	=21	=21	=21	=21	=21	=21	=21	=21	=21	=21
!LO:TX:a:i:t=Tutti	!	!	!	!	!	!	!	!	!	!	!	!	!	!	!	!	!	!	!	!	!	!	!	!
8BB-/L	5_ 3_	.	8f\L	.	16d/LL	.	8B-/L	.	2BB-/	Gra-	2d\	Gra-	2f\	Gra-	2b-\	gra-	[2BB-/	.	1B-	f	2b-\	.	2dd\	.
.	.	.	.	.	16d/	.	.	.	.	.	.	.	.	.	.	.	.	.	.	.	.	.	.	.
!	!	!	!	!	!	!	!	!LO:DY:t=f.	!	!	!	!	!	!	!	!	!	!	!	!	!	!	!	!
8BB-/	.	.	8f\	.	16d/	f	(16b-/L	f	.	.	.	.	.	.	.	.	.	.	.	.	.	.	.	.
.	.	.	.	.	16d/JJ	.	16cc/JJ)	.	.	.	.	.	.	.	.	.	.	.	.	.	.	.	.	.
*	*	*	*	*	*tremolo	*	*	*	*	*	*	*	*	*	*	*	*	*	*	*	*	*	*	*
!	!	!	!	!	!LO:TX:t=P:problem=custos d	!	!	!	!	!	!	!	!	!	!	!	!	!	!	!	!	!	!	!
8D/	.	.	8f\	.	16f/LL	.	8b-/L|	.	.	.	.	.	.	.	.	.	.	.	.	.	.	.	.	.
.	.	.	.	.	16f/	.	.	.	.	.	.	.	.	.	.	.	.	.	.	.	.	.	.	.
8D/J	.	.	8f\J	.	16f/	.	8b-/J|	.	.	.	.	.	.	.	.	.	.	.	.	.	.	.	.	.
.	.	.	.	.	16f/JJ	.	.	.	.	.	.	.	.	.	.	.	.	.	.	.	.	.	.	.
!	!	!	!	!	!LO:LB:g=original	!	!LO:LB:g=original	!	!	!	!	!	!	!	!	!	!	!	!	!	!	!	!	!
8BB-/L	x	.	8f\L	f	16d/LL	.	8dd\L|	.	4BB-/	-ti-	4B-\	-ti-	4f\	-ti-	4dd\	-ti-	2BB-/]	.	.	.	4b-\	.	4dd\	.
.	.	.	.	.	16d/	.	.	.	.	.	.	.	.	.	.	.	.	.	.	.	.	.	.	.
8BB-/	.	.	8f\	.	16d/	.	8dd\|	.	.	.	.	.	.	.	.	.	.	.	.	.	.	.	.	.
.	.	.	.	.	16d/JJ	.	.	.	.	.	.	.	.	.	.	.	.	.	.	.	.	.	.	.
8D/	.	.	8f\	.	16B-/LL	.	8ff\|	.	4D/	-as	4B-\	-as	4b-\	-as	4ff\	-as	.	.	.	.	4dd\	.	4ff\	.
.	.	.	.	.	16B-/	.	.	.	.	.	.	.	.	.	.	.	.	.	.	.	.	.	.	.
8D/J	.	.	8f\J	.	16B-/	.	8ff\J|	.	.	.	.	.	.	.	.	.	.	.	.	.	.	.	.	.
.	.	.	.	.	16B-/JJ	.	.	.	.	.	.	.	.	.	.	.	.	.	.	.	.	.	.	.
!	!	!	!	!	!	!	!	!	!LO:LB:g=original	!	!	!	!	!	!	!	!	!	!	!	!	!	!	!
=22	=22	=22	=22	=22	=22	=22	=22	=22	=22	=22	=22	=22	=22	=22	=22	=22	=22	=22	=22	=22	=22	=22	=22	=22
!	!	!	!	!	!	!	!	!	!	!	!	!	!	!	!	!	!LO:TX:t=P:problem=brak taktu nr 22	!	!	!	!	!	!	!
8BB-/L	.	.	8f\L	.	16d/LL	.	4.bb-\	.	4B-\	a-	4B-\	a-	4dd\	a-	4ff\	a-	1ryy	.	1B-	.	2dd\	.	2bb-\	.
.	.	.	.	.	16d/	.	.	.	.	.	.	.	.	.	.	.	.	.	.	.	.	.	.	.
8BB-/	.	.	8f\	.	16d/	.	.	.	.	.	.	.	.	.	.	.	.	.	.	.	.	.	.	.
.	.	.	.	.	16d/JJ	.	.	.	.	.	.	.	.	.	.	.	.	.	.	.	.	.	.	.
8D/	.	.	8f\	.	16f/LL	.	.	.	4d\	-gi-	4B-\	-gi-	4dd\	-gi-	4ff\	-gi-	.	.	.	.	.	.	.	.
.	.	.	.	.	16f/	.	.	.	.	.	.	.	.	.	.	.	.	.	.	.	.	.	.	.
8D/J	.	.	8f\J	.	16f/	.	8ff\	.	.	.	.	.	.	.	.	.	.	.	.	.	.	.	.	.
.	.	.	.	.	16f/JJ	.	.	.	.	.	.	.	.	.	.	.	.	.	.	.	.	.	.	.
*tremolo	*	*	*	*	*	*	*	*	*	*	*	*	*	*	*	*	*	*	*	*	*	*	*	*
8BB-/L	.	.	8f\L	.	16d/LL	.	(8ee-\L	.	2B-\	-mus	2B-\	-mus	2dd\	-mus	2ff\	-mus	.	.	.	.	2b-\	.	2ee-\	.
.	.	.	.	.	16d/	.	.	.	.	.	.	.	.	.	.	.	.	.	.	.	.	.	.	.
8BB-/	.	.	8f\	.	16d/	.	8dd\)	.	.	.	.	.	.	.	.	.	.	.	.	.	.	.	.	.
.	.	.	.	.	16d/	.	.	.	.	.	.	.	.	.	.	.	.	.	.	.	.	.	.	.
8BB-/	.	.	8f\	.	16d/	.	(8cc\	.	.	.	.	.	.	.	.	.	.	.	.	.	.	.	.	.
.	.	.	.	.	16d/	.	.	.	.	.	.	.	.	.	.	.	.	.	.	.	.	.	.	.
8BB-/J	.	.	8f\J	.	16d/	.	8b-\J)	.	.	.	.	.	.	.	.	.	.	.	.	.	.	.	.	.
.	.	.	.	.	16d/JJ	.	.	.	.	.	.	.	.	.	.	.	.	.	.	.	.	.	.	.
*Xtremolo	*	*	*	*	*	*	*	*	*	*	*	*	*	*	*	*	*	*	*	*	*	*	*	*
!	!	!	!	!	!	!	!	!	!	!	!	!	!LO:LB:g=original	!	!	!	!	!	!	!	!	!	!	!
=23	=23	=23	=23	=23	=23	=23	=23	=23	=23	=23	=23	=23	=23	=23	=23	=23	=23	=23	=23	=23	=23	=23	=23	=23
8F\L	5 n	.	8f\L	.	16c/LL	.	8an\L	.	4F\	ti-	4An/	ti-	4cc\	ti-	4ff\	ti-	1f	.	1f	.	4a\	.	1ff	.
.	.	.	.	.	16c/	.	.	.	.	.	.	.	.	.	.	.	.	.	.	.	.	.	.	.
8F\	.	.	8f\	.	16c/	.	(16ff\L	.	.	.	.	.	.	.	.	.	.	.	.	.	.	.	.	.
.	.	.	.	.	16c/	.	16gg\JJ)	.	.	.	.	.	.	.	.	.	.	.	.	.	.	.	.	.
8An\	.	.	8f\	.	16c/	.	8ff\L|	.	4F\	-bi	4A/	-bi	4cc\	-bi	4ff\	-bi	.	.	.	.	4a\	.	.	.
.	.	.	.	.	16c/	.	.	.	.	.	.	.	.	.	.	.	.	.	.	.	.	.	.	.
8A\J	.	.	8f\J	.	16c/	.	8ff\J|	.	.	.	.	.	.	.	.	.	.	.	.	.	.	.	.	.
.	.	.	.	.	16c/JJ	.	.	.	.	.	.	.	.	.	.	.	.	.	.	.	.	.	.	.
8F\L	.	.	8f\L	.	16An/LL	.	8cc\L|	.	4An\	(pro)-	4F/	(pro)-	4cc\	(pro)-	4ff\	(pro)-	.	.	.	.	4cc\	.	.	.
.	.	.	.	.	16A/	.	.	.	.	.	.	.	.	.	.	.	.	.	.	.	.	.	.	.
8F\	.	.	8f\	.	16A/	.	8cc\|	.	.	.	.	.	.	.	.	.	.	.	.	.	.	.	.	.
.	.	.	.	.	16A/JJ	.	.	.	.	.	.	.	.	.	.	.	.	.	.	.	.	.	.	.
8An\	.	.	8f\	.	16c/LL	.	8ff\|	.	4A\	-pter	4F/	-pter	4cc\	-pter	4ff\	-pter	.	.	.	.	4a\	.	.	.
.	.	.	.	.	16c/	.	.	.	.	.	.	.	.	.	.	.	.	.	.	.	.	.	.	.
8A\J	.	.	8f\J	.	16c/	.	8ff\J|	.	.	.	.	.	.	.	.	.	.	.	.	.	.	.	.	.
.	.	.	.	.	16c/JJ	.	.	.	.	.	.	.	.	.	.	.	.	.	.	.	.	.	.	.
*	*	*	*Xtremolo	*	*Xtremolo	*	*	*	*	*	*	*	*	*	*	*	*	*	*	*	*	*	*	*
=24	=24	=24	=24	=24	=24	=24	=24	=24	=24	=24	=24	=24	=24	=24	=24	=24	=24	=24	=24	=24	=24	=24	=24	=24
!	!	!	!	!	!	!	!	!	!LO:SIC:v:s=(4An\	!	!	!	!	!	!	!	!	!	!	!	!	!	!	!
8F\L	.	.	8f\L	.	8An/L	.	8an/L|	.	(4A-\	mag-	2F/	mag-	2an\	Mag-	2cc\	mag-	4f\	.	4f\	.	4a\	.	4ff\	.
8F\|	.	.	8f\	.	8A/	.	8a/|	.	.	.	.	.	.	.	.	.	.	.	.	.	.	.	.	.
8c\|	.	.	8cc\	.	8c/	.	8cc/|	.	4c\)	.	.	.	.	.	.	.	4r	.	4r	.	4r	.	4r	.
8c\J|	.	.	8cc\J	.	8c/J	.	8cc/J|	.	.	.	.	.	.	.	.	.	.	.	.	.	.	.	.	.
8F\L|	.	.	8f\L	.	8f/L	.	8f/L|	.	(4F\	-nam	2F/	-nam	2a\	-nam	2cc\	-nam	2r	.	2r	.	2r	.	2r	.
8F\|	.	.	8f\	.	8f/	.	8f/|	.	.	.	.	.	.	.	.	.	.	.	.	.	.	.	.	.
!	!	!	!	!	!	!	!	!	!LO:SIC:v:s=4An\)	!	!	!	!	!	!	!	!	!	!	!	!	!	!	!
8An\|	.	.	8an\	.	8an/	.	8a/|	.	4A-\)	.	.	.	.	.	.	.	.	.	.	.	.	.	.	.
8A\J|	.	.	8a\J	.	8a/J	.	8a/J|	.	.	.	.	.	.	.	.	.	.	.	.	.	.	.	.	.
!	!	!	!LO:LB:g=original	!	!	!	!	!	!	!	!	!	!	!	!LO:PB:g=original	!	!	!	!LO:LB:g=original	!	!	!	!LO:LB:g=original	!
=25	=25	=25	=25	=25	=25	=25	=25	=25	=25	=25	=25	=25	=25	=25	=25	=25	=25	=25	=25	=25	=25	=25	=25	=25
*	*	*	*tremolo	*	*tremolo	*	*	*	*	*	*	*	*	*	*	*	*	*	*	*	*	*	*	*
!LO:TX:t=P:problem=mixed beam	!	!	!	!	!	!	!	!	!	!	!	!	!	!	!	!	!	!	!	!	!	!	!	!
8B-\L	5_ 3_	.	8f\L	.	16d/LL	.	8b-\L|	.	2B-\	glo-	2d\	glo-	2f\	glo-	2b-\	glo-	1BB-	.	1B-	.	2b-\	f	2dd\	.
.	.	.	.	.	16d/	.	.	.	.	.	.	.	.	.	.	.	.	.	.	.	.	.	.	.
8B-\	.	.	8f\	.	16d/	.	(16b-\L	.	.	.	.	.	.	.	.	.	.	.	.	.	.	.	.	.
.	.	.	.	.	16d/JJ	.	16cc\JJ)	.	.	.	.	.	.	.	.	.	.	.	.	.	.	.	.	.
8D/	.	.	8f\	.	16f/LL	.	8b-\L|	.	.	.	.	.	.	.	.	.	.	.	.	.	.	.	.	.
.	.	.	.	.	16f/	.	.	.	.	.	.	.	.	.	.	.	.	.	.	.	.	.	.	.
8D/J	.	.	8f\J	.	16f/	.	8b-\J|	.	.	.	.	.	.	.	.	.	.	.	.	.	.	.	.	.
.	.	.	.	.	16f/JJ	.	.	.	.	.	.	.	.	.	.	.	.	.	.	.	.	.	.	.
8BB-/L	x	.	8f\L	f	16d/LL	.	8dd\L|	.	4BB-/	-ri-	4B-\	-ri-	4f\	-ri-	4dd\	-ri-	.	.	.	.	4b-\	.	4dd\	.
.	.	.	.	.	16d/	.	.	.	.	.	.	.	.	.	.	.	.	.	.	.	.	.	.	.
8BB-/	.	.	8f\	.	16d/	.	8dd\|	.	.	.	.	.	.	.	.	.	.	.	.	.	.	.	.	.
.	.	.	.	.	16d/JJ	.	.	.	.	.	.	.	.	.	.	.	.	.	.	.	.	.	.	.
8D/	.	.	8f\	.	16f/LL	.	8ff\|	.	4D/	-am	4B-\	-am	4b-\	-am	4ff\	-am	.	.	.	.	4dd\	.	4ff\	.
.	.	.	.	.	16f/	.	.	.	.	.	.	.	.	.	.	.	.	.	.	.	.	.	.	.
8D/J	.	.	8f\J	.	16f/	.	8ff\J|	.	.	.	.	.	.	.	.	.	.	.	.	.	.	.	.	.
.	.	.	.	.	16f/JJ	.	.	.	.	.	.	.	.	.	.	.	.	.	.	.	.	.	.	.
!	!	!	!	!	!	!	!	!	!	!	!	!	!	!	!	!	!	!	!	!	!LO:LB:g=original	!	!	!
=26	=26	=26	=26	=26	=26	=26	=26	=26	=26	=26	=26	=26	=26	=26	=26	=26	=26	=26	=26	=26	=26	=26	=26	=26
8BB-/L	.	.	8f\L	.	16d/LL	.	4.bb-\	.	2B-\	tu-	2B-\	tu-	2dd\	tu-	2ff\	tu-	1BB-	.	1B-	.	2dd\	.	2bb-\	.
.	.	.	.	.	16d/	.	.	.	.	.	.	.	.	.	.	.	.	.	.	.	.	.	.	.
8BB-/	.	.	8f\	.	16d/	.	.	.	.	.	.	.	.	.	.	.	.	.	.	.	.	.	.	.
.	.	.	.	.	16d/JJ	.	.	.	.	.	.	.	.	.	.	.	.	.	.	.	.	.	.	.
8D/	.	.	8f\	.	16f/LL	.	.	.	.	.	.	.	.	.	.	.	.	.	.	.	.	.	.	.
.	.	.	.	.	16f/	.	.	.	.	.	.	.	.	.	.	.	.	.	.	.	.	.	.	.
8D/J	.	.	8f\J	.	16f/	.	8ff\	.	.	.	.	.	.	.	.	.	.	.	.	.	.	.	.	.
.	.	.	.	.	16f/JJ	.	.	.	.	.	.	.	.	.	.	.	.	.	.	.	.	.	.	.
*tremolo	*	*	*	*	*	*	*	*	*	*	*	*	*	*	*	*	*	*	*	*	*	*	*	*
8BB-/L	.	.	8f\L	.	16d/LL	.	8ee-\L	.	2B-\	-am	2B-\	-am	2dd\	-am	2ff\	-am	.	.	.	.	2b-\	.	2dd\	.
.	.	.	.	.	16d/	.	.	.	.	.	.	.	.	.	.	.	.	.	.	.	.	.	.	.
8BB-/	.	.	8f\	.	16d/	.	8dd\	.	.	.	.	.	.	.	.	.	.	.	.	.	.	.	.	.
.	.	.	.	.	16d/JJ	.	.	.	.	.	.	.	.	.	.	.	.	.	.	.	.	.	.	.
8BB-/	.	.	8f\	.	16d/LL	.	8cc\	.	.	.	.	.	.	.	.	.	.	.	.	.	.	.	.	.
.	.	.	.	.	16d/	.	.	.	.	.	.	.	.	.	.	.	.	.	.	.	.	.	.	.
8BB-/J	.	.	8f\J	.	16d/	.	8b-\J	.	.	.	.	.	.	.	.	.	.	.	.	.	.	.	.	.
.	.	.	.	.	16d/JJ	.	.	.	.	.	.	.	.	.	.	.	.	.	.	.	.	.	.	.
*Xtremolo	*	*	*	*	*	*	*	*	*	*	*	*	*	*	*	*	*	*	*	*	*	*	*	*
=27	=27	=27	=27	=27	=27	=27	=27	=27	=27	=27	=27	=27	=27	=27	=27	=27	=27	=27	=27	=27	=27	=27	=27	=27
*	*	*	*	*	*	*	*	*	*	*	*	*ij	*	*	*	*	*	*	*	*	*	*	*	*
!	!	!	!	!	!	!	!LO:SIC:v:s=8an\L	!	!	!	!	!	!	!	!	!	!	!	!	!	!	!	!	!
8F\L	5_ n_	.	8f\L	.	16c/LL	.	8a-\L	.	2F\	glo-	2An/	glo-	2cc\	glo-	2ff\	glo-	1f	.	1f	.	4a\	.	1ff	.
.	.	.	.	.	16c/	.	.	.	.	.	.	.	.	.	.	.	.	.	.	.	.	.	.	.
8F\	.	.	8f\	.	16c/	.	(16ff\L	.	.	.	.	.	.	.	.	.	.	.	.	.	.	.	.	.
.	.	.	.	.	16c/JJ	.	16gg\JJ)	.	.	.	.	.	.	.	.	.	.	.	.	.	.	.	.	.
8An\	.	.	8f\	.	16c/LL	.	8ff\L|	.	.	.	.	.	.	.	.	.	.	.	.	.	4a\	.	.	.
.	.	.	.	.	16c/	.	.	.	.	.	.	.	.	.	.	.	.	.	.	.	.	.	.	.
8A\J	.	.	8f\J	.	16c/	.	8ff\J|	.	.	.	.	.	.	.	.	.	.	.	.	.	.	.	.	.
.	.	.	.	.	16c/JJ	.	.	.	.	.	.	.	.	.	.	.	.	.	.	.	.	.	.	.
!LO:LB:g=original	!	!	!	!	!	!	!	!	!	!	!	!	!	!	!	!	!	!	!	!	!	!	!	!
8F\L	x	.	8f\L	.	16An/LL	.	8cc\L|	.	4An\	-ri-	4F/	-ri-	4cc\	-ri-	4ff\	-ri-	.	.	.	.	4cc\	.	.	.
.	.	.	.	.	16A/	.	.	.	.	.	.	.	.	.	.	.	.	.	.	.	.	.	.	.
8F\	.	.	8f\	.	16A/	.	8cc\|	.	.	.	.	.	.	.	.	.	.	.	.	.	.	.	.	.
.	.	.	.	.	16A/JJ	.	.	.	.	.	.	.	.	.	.	.	.	.	.	.	.	.	.	.
8An\	.	.	8f\	.	16c/LL	.	8ff\|	.	4A\	-am	4F/	-am	4cc\	-am	4ff\	-am	.	.	.	.	4a\	.	.	.
.	.	.	.	.	16c/	.	.	.	.	.	.	.	.	.	.	.	.	.	.	.	.	.	.	.
8A\J	.	.	8f\J	.	16c/	.	8ff\J|	.	.	.	.	.	.	.	.	.	.	.	.	.	.	.	.	.
.	.	.	.	.	16c/JJ	.	.	.	.	.	.	.	.	.	.	.	.	.	.	.	.	.	.	.
*	*	*	*Xtremolo	*	*Xtremolo	*	*	*	*	*	*	*	*	*	*	*	*	*	*	*	*	*	*	*
!	!	!	!	!	!LO:LB:g=original	!	!LO:LB:g=original	!	!	!	!	!	!	!	!	!	!	!	!	!	!	!	!	!
=28	=28	=28	=28	=28	=28	=28	=28	=28	=28	=28	=28	=28	=28	=28	=28	=28	=28	=28	=28	=28	=28	=28	=28	=28
!	!	!	!	!	!	!	!LO:SIC:v:s=8an/L|	!	!	!	!	!	!	!	!	!	!	!	!	!	!	!	!	!
!	!	!	!	!	!LO:SIC:v:s=8An/L	!	!	!	!	!	!	!	!	!	!	!	!	!	!	!	!LO:SIC:v:s=4an/	!	!	!
8F\L	.	.	8f\L	.	8A-/L	.	8a-/L|	.	2F\	tu-	2F/	tu-	2an\	tu-	2cc\	tu-	4f\	.	4f\	.	4a-/	.	4ff\	.
!	!	!	!	!	!LO:SIC:v:s=8An/	!	!LO:SIC:v:s=8an/|	!	!	!	!	!	!	!	!	!	!	!	!	!	!	!	!	!
8F\	.	.	8f\	.	8A-/	.	8a-/|	.	.	.	.	.	.	.	.	.	.	.	.	.	.	.	.	.
8c\|	.	.	8cc\	.	8c/	.	8cc/|	.	.	.	.	.	.	.	.	.	4r	.	4r	.	4r	.	4r	.
8c\J|	.	.	8cc\J	.	8c/J	.	8cc/J|	.	.	.	.	.	.	.	.	.	.	.	.	.	.	.	.	.
8F\L|	.	.	8f\L	.	8f/L	.	8f/L|	.	4F\	-am	2F/	-am	2a\	-am	2cc\	-am	2r	.	2r	.	2r	.	2r	.
*	*	*	*	*	*	*	*	*	*	*	*	*Xij	*	*	*	*	*	*	*	*	*	*	*	*
8F\|	.	.	8f\	.	8f/	.	8f/|	.	.	.	.	.	.	.	.	.	.	.	.	.	.	.	.	.
!	!	!	!	!	!	!	!LO:SIC:v:s=8an/|	!	!	!	!	!	!	!	!	!	!	!	!	!	!	!	!	!
8An\|	.	.	8an\	.	8an/	.	8a-/|	.	(4An\	glo-	.	.	.	.	.	.	.	.	.	.	.	.	.	.
!	!	!	!	!	!	!	!LO:SIC:v:s=8an/J|	!	!	!	!	!	!	!	!	!	!	!	!	!	!	!	!	!
8A\J|	.	.	8a\J	.	8a/J	.	8a-/J|	.	.	.	.	.	.	.	.	.	.	.	.	.	.	.	.	.
!	!	!	!	!	!	!	!	!	!	!	!LO:LB:g=original	!	!	!	!	!	!	!	!	!	!	!	!	!
=29	=29	=29	=29	=29	=29	=29	=29	=29	=29	=29	=29	=29	=29	=29	=29	=29	=29	=29	=29	=29	=29	=29	=29	=29
*tremolo	*	*	*tremolo	*	*tremolo	*	*	*	*	*	*	*	*	*	*	*	*	*	*	*	*	*	*	*
8B-\L	.	.	8b-\L	.	16f/LL	.	8b-\L|	.	2B-\)	.	2B-\	glo-	2f\	glo-	2dd\	glo-	1B-	.	1f	.	2b-\	.	2dd\	.
.	.	.	.	.	16f/	.	.	.	.	.	.	.	.	.	.	.	.	.	.	.	.	.	.	.
8B-\	.	.	8b-\	.	16f/	.	(16b-\L	.	.	.	.	.	.	.	.	.	.	.	.	.	.	.	.	.
.	.	.	.	.	16f/	.	16cc\JJ)	.	.	.	.	.	.	.	.	.	.	.	.	.	.	.	.	.
8B-\	.	.	8b-\	.	16f/	.	8b-\L|	.	.	.	.	.	.	.	.	.	.	.	.	.	.	.	.	.
.	.	.	.	.	16f/	.	.	.	.	.	.	.	.	.	.	.	.	.	.	.	.	.	.	.
8B-\J	.	.	8b-\J	.	16f/	.	8b-\J|	.	.	.	.	.	.	.	.	.	.	.	.	.	.	.	.	.
.	.	.	.	.	16f/JJ	.	.	.	.	.	.	.	.	.	.	.	.	.	.	.	.	.	.	.
8D\L	6	.	8d\L	.	16f/LL	.	(8bb-\L	.	4D\	-ri-	4B-\	-ri-	4f\	-ri-	4dd\	-ri-	.	.	.	.	4b-\	.	4dd\	.
.	.	.	.	.	16f/	.	.	.	.	.	.	.	.	.	.	.	.	.	.	.	.	.	.	.
8D\	.	.	8d\	.	16f/	.	8b-\)	.	.	.	.	.	.	.	.	.	.	.	.	.	.	.	.	.
.	.	.	.	.	16f/	.	.	.	.	.	.	.	.	.	.	.	.	.	.	.	.	.	.	.
8D\	.	.	8d\	.	16f/	.	8b-\|	.	4D\	-am	4B-\	-am	4f\	-am	4dd\	-am	.	.	.	.	4b-\	.	4dd\	.
.	.	.	.	.	16f/	.	.	.	.	.	.	.	.	.	.	.	.	.	.	.	.	.	.	.
8D\J	.	.	8d\J	.	16f/	.	8b-\J|	.	.	.	.	.	.	.	.	.	.	.	.	.	.	.	.	.
.	.	.	.	.	16f/JJ	.	.	.	.	.	.	.	.	.	.	.	.	.	.	.	.	.	.	.
!	!	!	!	!	!	!	!	!	!LO:LB:g=original	!	!	!	!	!	!	!	!	!	!	!	!	!	!	!
=30	=30	=30	=30	=30	=30	=30	=30	=30	=30	=30	=30	=30	=30	=30	=30	=30	=30	=30	=30	=30	=30	=30	=30	=30
8G\L	3	.	8g\L	.	16d/LL	.	(8bb-\L	.	2G\	tu-	2d\	tu-	[2g\	tu-	2dd\	tu-	2B-/	.	2b-\	.	2dd\	.	2bb-\	.
.	.	.	.	.	16d/	.	.	.	.	.	.	.	.	.	.	.	.	.	.	.	.	.	.	.
8G\	.	.	8g\	.	16d/	.	8b-\)	.	.	.	.	.	.	.	.	.	.	.	.	.	.	.	.	.
.	.	.	.	.	16d/	.	.	.	.	.	.	.	.	.	.	.	.	.	.	.	.	.	.	.
8G\	.	.	8g\	.	16d/	.	(8bb-\	.	.	.	.	.	.	.	.	.	.	.	.	.	.	.	.	.
.	.	.	.	.	16d/	.	.	.	.	.	.	.	.	.	.	.	.	.	.	.	.	.	.	.
8G\J	.	.	8g\J	.	16d/	.	8b-\J)	.	.	.	.	.	.	.	.	.	.	.	.	.	.	.	.	.
.	.	.	.	.	16d/JJ	.	.	.	.	.	.	.	.	.	.	.	.	.	.	.	.	.	.	.
!	!	!	!LO:SIC:v:s=8en\L	!	!	!	!	!	!	!	!	!	!	!	!	!	!	!	!	!	!	!	!	!
8En\L	5 3	.	8e-\L	.	16g/LL	.	(8bb-\L	.	2En\	.	2c\	.	2g\]	.	2een\	.	4B-/	.	4b-\	.	2eeX\	.	2gg\	.
.	.	.	.	.	16g/	.	.	.	.	.	.	.	.	.	.	.	.	.	.	.	.	.	.	.
!	!	!	!LO:SIC:v:s=8e\	!	!	!	!	!	!	!	!	!	!	!	!	!	!	!	!	!	!	!	!	!
8E\	.	.	8e-\	.	16g/	.	8gg\)	.	.	.	.	.	.	.	.	.	.	.	.	.	.	.	.	.
.	.	.	.	.	16g/	.	.	.	.	.	.	.	.	.	.	.	.	.	.	.	.	.	.	.
!	!	!	!LO:SIC:v:s=8e\	!	!	!	!	!	!	!	!	!	!	!	!	!	!	!	!	!	!	!	!	!
8E\	.	.	8e-\	.	16g/	.	(8een\	.	.	.	.	.	.	.	.	.	4B-/	.	4b-\	.	.	.	.	.
.	.	.	.	.	16g/	.	.	.	.	.	.	.	.	.	.	.	.	.	.	.	.	.	.	.
!	!	!	!LO:SIC:v:s=8e\J	!	!	!	!	!	!	!	!	!	!	!	!	!	!	!	!	!	!	!	!	!
8E\J	.	.	8e-\J	.	16g/	.	8gg\J)	.	.	.	.	.	.	.	.	.	.	.	.	.	.	.	.	.
.	.	.	.	.	16g/JJ	.	.	.	.	.	.	.	.	.	.	.	.	.	.	.	.	.	.	.
*Xtremolo	*	*	*Xtremolo	*	*Xtremolo	*	*	*	*	*	*	*	*	*	*	*	*	*	*	*	*	*	*	*
!	!	!	!	!	!	!	!	!	!	!	!	!	!LO:LB:g=original	!	!	!	!LO:LB:g=original	!	!	!	!	!	!	!
=31	=31	=31	=31	=31	=31	=31	=31	=31	=31	=31	=31	=31	=31	=31	=31	=31	=31	=31	=31	=31	=31	=31	=31	=31
4F\	n	.	4f\	.	4an/	.	4ff\	.	4F\	-am	4c\	-am	4an\	-am	4ff\	-am	4f\	.	4f\	.	4ff\	.	4ff\	.
4FF/	.	.	4F/	.	4f/	.	4f/	.	4r	.	4r	.	4r	.	4r	.	4f\	.	4f\	.	4ff\	.	4ff\	.
!LO:TX:a:i:t=Solo	!	!	!	!	!	!	!	!	!	!	!	!	!	!	!	!	!	!	!	!	!	!	!	!
2r	.	.	2r	.	2r	.	4r	.	2r	.	2r	.	2r	.	2r	.	2r	.	2r	.	2r	.	2r	.
.	.	.	.	.	.	.	(8f/L	.	.	.	.	.	.	.	.	.	.	.	.	.	.	.	.	.
.	.	.	.	.	.	.	8an/J)	.	.	.	.	.	.	.	.	.	.	.	.	.	.	.	.	.
!	!	!	!LO:LB:g=original	!	!	!	!	!	!	!	!	!	!	!	!	!	!	!	!	!	!	!	!	!
=32	=32	=32	=32	=32	=32	=32	=32	=32	=32	=32	=32	=32	=32	=32	=32	=32	=32	=32	=32	=32	=32	=32	=32	=32
!	!	!	!LO:TX:a:t=5	!	!	!	!LO:TX:a:i:t=dol&colon;	!LO:DY:t=p.	!LO:TX:a:i:t=Solo	!	!LO:TX:b:t=15 pauz&colon;	!	!LO:TX:a:t=10	!	!LO:TX:a:t=5	!	!LO:TX:a:t=15	!	!LO:TX:a:t=10	!	!LO:TX:a:t=5	!	!LO:TX:a:t=5	!
4B-\	.	.	00r	.	8d/L	p	2b-\	p	2BB-/	Do-	1r	.	00r	.	00r	.	00r	.	00r	.	00r	.	00r	.
.	.	.	.	.	8f/	.	.	.	.	.	.	.	.	.	.	.	.	.	.	.	.	.	.	.
4BB-/	.	.	.	.	8d/	.	.	.	.	.	.	.	.	.	.	.	.	.	.	.	.	.	.	.
.	.	.	.	.	8f/J	.	.	.	.	.	.	.	.	.	.	.	.	.	.	.	.	.	.	.
2r	.	.	.	.	8B-/L	.	(4dd\	.	4D\	-mi-	.	.	.	.	.	.	.	.	.	.	.	.	.	.
.	.	.	.	.	8f/	.	.	.	.	.	.	.	.	.	.	.	.	.	.	.	.	.	.	.
.	.	.	.	.	8d/	.	4ff\)	.	4F\	-ne	.	.	.	.	.	.	.	.	.	.	.	.	.	.
.	.	.	.	.	8f/J	.	.	.	.	.	.	.	.	.	.	.	.	.	.	.	.	.	.	.
=33	=33	=33	=33	=33	=33	=33	=33	=33	=33	=33	=33	=33	=33	=33	=33	=33	=33	=33	=33	=33	=33	=33	=33	=33
4r	.	.	.	.	8B-/L	.	4dd\	.	4D/	De-	1r	.	.	.	.	.	.	.	.	.	.	.	.	.
!	!	!	!	!	!LO:TX:a:t=bis	!	!	!	!	!	!	!	!	!	!	!	!	!	!	!	!	!	!	!
.	.	.	.	.	8f/	.	.	.	.	.	.	.	.	.	.	.	.	.	.	.	.	.	.	.
4B-\	.	.	.	.	8d/	.	2b-\	.	4BB-/	-us	.	.	.	.	.	.	.	.	.	.	.	.	.	.
.	.	.	.	.	8f/J	.	.	.	.	.	.	.	.	.	.	.	.	.	.	.	.	.	.	.
4BB-/	.	.	.	.	8d/L	.	.	.	4r	.	.	.	.	.	.	.	.	.	.	.	.	.	.	.
.	.	.	.	.	8f/	.	.	.	.	.	.	.	.	.	.	.	.	.	.	.	.	.	.	.
4r	.	.	.	.	8d/	.	4ff\	.	8F\	Rex	.	.	.	.	.	.	.	.	.	.	.	.	.	.
.	.	.	.	.	8f/J	.	.	.	8F\	cae-	.	.	.	.	.	.	.	.	.	.	.	.	.	.
=34	=34	=34	=34	=34	=34	=34	=34	=34	=34	=34	=34	=34	=34	=34	=34	=34	=34	=34	=34	=34	=34	=34	=34	=34
4r	.	.	.	.	8B-/L	.	8dd\L	.	8D/	-le-	1r	.	.	.	.	.	.	.	.	.	.	.	.	.
.	.	.	.	.	8f/	.	8cc\J	.	8C/	.	.	.	.	.	.	.	.	.	.	.	.	.	.	.
4B-\	.	.	.	.	8d/	.	2b-\	.	4BB-/	-stis	.	.	.	.	.	.	.	.	.	.	.	.	.	.
.	.	.	.	.	8f/J	.	.	.	.	.	.	.	.	.	.	.	.	.	.	.	.	.	.	.
4BB-/	.	.	.	.	8d/L	.	.	.	4r	.	.	.	.	.	.	.	.	.	.	.	.	.	.	.
.	.	.	.	.	8f/	.	.	.	.	.	.	.	.	.	.	.	.	.	.	.	.	.	.	.
4r	.	.	.	.	8d/	.	4ff\	.	8F\	De-	.	.	.	.	.	.	.	.	.	.	.	.	.	.
.	.	.	.	.	8f/J	.	.	.	8F\	-us	.	.	.	.	.	.	.	.	.	.	.	.	.	.
!	!	!	!	!	!LO:LB:g=original	!	!	!	!	!	!	!	!	!	!	!	!	!	!	!	!	!	!	!
=35	=35	=35	=35	=35	=35	=35	=35	=35	=35	=35	=35	=35	=35	=35	=35	=35	=35	=35	=35	=35	=35	=35	=35	=35
4E-\	5 3	.	.	.	8e-/L	.	4gg\	.	(4G\	Va-	1r	.	.	.	.	.	.	.	.	.	.	.	.	.
.	.	.	.	.	8d/	.	.	.	.	.	.	.	.	.	.	.	.	.	.	.	.	.	.	.
4D\	6	.	.	.	8d/	.	4ff\	.	4F\)	.	.	.	.	.	.	.	.	.	.	.	.	.	.	.
.	.	.	.	.	8B-/J	.	.	.	.	.	.	.	.	.	.	.	.	.	.	.	.	.	.	.
4C\	7	.	.	.	8e-/L	.	4gg\	.	4G\	-ter	.	.	.	.	.	.	.	.	.	.	.	.	.	.
.	.	.	.	.	8c/	.	.	.	.	.	.	.	.	.	.	.	.	.	.	.	.	.	.	.
.	.	.	.	.	.	.	8qbb-/	.	.	.	.	.	.	.	.	.	.	.	.	.	.	.	.	.
4F\	7 n	.	.	.	8f/	.	(8aan\L	.	4An\	Om-	.	.	.	.	.	.	.	.	.	.	.	.	.	.
.	.	.	.	.	8c/J	.	16gg\L	.	.	.	.	.	.	.	.	.	.	.	.	.	.	.	.	.
.	.	.	.	.	.	.	16aa\JJ)	.	.	.	.	.	.	.	.	.	.	.	.	.	.	.	.	.
!	!	!	!	!	!	!	!LO:LB:g=original	!	!	!	!	!	!	!	!	!	!	!	!	!	!	!	!	!
=36	=36	=36	=36	=36	=36	=36	=36	=36	=36	=36	=36	=36	=36	=36	=36	=36	=36	=36	=36	=36	=36	=36	=36	=36
!	!	!	!	!	!	!	!	!LO:DY:t=f.	!	!	!	!	!	!	!	!	!	!	!	!	!	!	!	!
4B-\|	.	.	1r	.	4d/	.	4bb-\	f	8B-\	-ni-	1r	.	00r	.	1r	.	00r	.	00r	.	1r	.	1r	.
.	.	.	.	.	.	.	.	.	8BB-/	-po-	.	.	.	.	.	.	.	.	.	.	.	.	.	.
4BB-/|	.	.	.	.	4d/	.	4b-\	.	4BB-\	-tens,	.	.	.	.	.	.	.	.	.	.	.	.	.	.
2r	.	.	.	.	2r	.	2r	.	2r	.	.	.	.	.	.	.	.	.	.	.	.	.	.	.
!LO:LB:g=original	!	!	!	!	!	!	!	!	!	!	!	!	!	!	!LO:LB:g=original	!	!	!	!	!	!	!	!	!
=37	=37	=37	=37	=37	=37	=37	=37	=37	=37	=37	=37	=37	=37	=37	=37	=37	=37	=37	=37	=37	=37	=37	=37	=37
!	!	!	!	!	!LO:TX:t=P:problem=takty 36-40 zapisane repetycją	!	!	!LO:DY:rj	!LO:TX:a:t=10	!	!	!	!	!	!LO:TX:a:i:t=Solo	!	!	!	!	!	!LO:TX:a:i:t=Solo	!	!LO:TX:a:i:t=Solo	!
4B-\	.	.	1F	.	8d/Lyy	.	(2B-/	p	00r	.	1r	.	.	.	2b-\	Do-	.	.	.	.	2d/	p	2b-\	.
.	.	.	.	.	8f/yy	.	.	.	.	.	.	.	.	.	.	.	.	.	.	.	.	.	.	.
4BB-/	.	.	.	.	8d/yy	.	.	.	.	.	.	.	.	.	.	.	.	.	.	.	.	.	.	.
.	.	.	.	.	8f/Jyy	.	.	.	.	.	.	.	.	.	.	.	.	.	.	.	.	.	.	.
2r	.	.	.	.	8B-/Lyy	.	4d/)	.	.	.	.	.	.	.	4dd\	-mi-	.	.	.	.	4b-\	.	4dd\	.
.	.	.	.	.	8f/yy	.	.	.	.	.	.	.	.	.	.	.	.	.	.	.	.	.	.	.
.	.	.	.	.	8d/yy	.	4f/|	.	.	.	.	.	.	.	4ff\	-ne	.	.	.	.	4dd\	.	4ff\	.
.	.	.	.	.	8f/Jyy	.	.	.	.	.	.	.	.	.	.	.	.	.	.	.	.	.	.	.
=38	=38	=38	=38	=38	=38	=38	=38	=38	=38	=38	=38	=38	=38	=38	=38	=38	=38	=38	=38	=38	=38	=38	=38	=38
4r	.	.	1F	.	8B-/Lyy	.	4d/	.	.	.	1r	.	.	.	4dd\	Fi-	.	.	.	.	4b-\	.	4dd\	.
.	.	.	.	.	8f/yy	.	.	.	.	.	.	.	.	.	.	.	.	.	.	.	.	.	.	.
4B-\	.	.	.	.	8d/yy	.	2B-/	.	.	.	.	.	.	.	4b-\	-li	.	.	.	.	4d/	.	4b-\	.
.	.	.	.	.	8f/Jyy	.	.	.	.	.	.	.	.	.	.	.	.	.	.	.	.	.	.	.
!	!	!	!	!	!	!	!	!	!	!	!	!	!	!	!	!	!	!	!	!	!	!	!LO:LB:g=original	!
4BB-/	.	.	.	.	8d/Lyy	.	.	.	.	.	.	.	.	.	4r	.	.	.	.	.	4r	.	4r	.
.	.	.	.	.	8f/yy	.	.	.	.	.	.	.	.	.	.	.	.	.	.	.	.	.	.	.
4r	.	.	.	.	8d/yy	.	4f/	.	.	.	.	.	.	.	8ff\	u-	.	.	.	.	4dd\	.	4ff\	.
.	.	.	.	.	8f/Jyy	.	.	.	.	.	.	.	.	.	8ff\	-ni-	.	.	.	.	.	.	.	.
!	!	!	!	!	!	!	!	!	!	!	!	!	!	!	!	!	!	!	!	!	!LO:LB:g=original	!	!	!
=39	=39	=39	=39	=39	=39	=39	=39	=39	=39	=39	=39	=39	=39	=39	=39	=39	=39	=39	=39	=39	=39	=39	=39	=39
4r	.	.	1F	.	8B-/Lyy	.	8d/L	.	.	.	1r	.	.	.	8dd\	-ge-	.	.	.	.	8b-/L	.	8dd\L	.
.	.	.	.	.	8f/yy	.	8c/J	.	.	.	.	.	.	.	8cc\	-ni-	.	.	.	.	8f/J	.	8cc\J	.
4B-\	.	.	.	.	8d/yy	.	2B-/	.	.	.	.	.	.	.	4b-\	-te	.	.	.	.	4d/	.	4b-\	.
.	.	.	.	.	8f/Jyy	.	.	.	.	.	.	.	.	.	.	.	.	.	.	.	.	.	.	.
4BB-/	.	.	.	.	8d/Lyy	.	.	.	.	.	.	.	.	.	4r	.	.	.	.	.	4r	.	4r	.
.	.	.	.	.	8f/yy	.	.	.	.	.	.	.	.	.	.	.	.	.	.	.	.	.	.	.
4r	.	.	.	.	8d/yy	.	4f/	.	.	.	.	.	.	.	(4ff\	Je-	.	.	.	.	4dd\	.	4ff\	.
.	.	.	.	.	8f/Jyy	.	.	.	.	.	.	.	.	.	.	.	.	.	.	.	.	.	.	.
!	!	!	!	!	!LO:LB:g=original	!	!	!	!	!	!	!	!	!	!	!	!	!	!	!	!	!	!	!
=40	=40	=40	=40	=40	=40	=40	=40	=40	=40	=40	=40	=40	=40	=40	=40	=40	=40	=40	=40	=40	=40	=40	=40	=40
4E-\	5 3	.	4E-/	.	8e-/Lyy	.	4g/	.	.	.	1r	.	0r	.	4gg\)	.	00r	.	0r	.	4ee-\	.	4gg\	.
.	.	.	.	.	8d/yy	.	.	.	.	.	.	.	.	.	.	.	.	.	.	.	.	.	.	.
4D\	6	.	4D/	.	8d/yy	.	4f/	.	.	.	.	.	.	.	4ff\	-su	.	.	.	.	4dd\	.	4ff\	.
.	.	.	.	.	8B-/Jyy	.	.	.	.	.	.	.	.	.	.	.	.	.	.	.	.	.	.	.
4C\	7 5	.	4C/	.	8e-/Lyy	.	4g/	.	.	.	.	.	.	.	4gg\	Je-	.	.	.	.	4ee-\	.	4gg\	.
.	.	.	.	.	8c/yy	.	.	.	.	.	.	.	.	.	.	.	.	.	.	.	.	.	.	.
.	.	.	.	.	.	.	8qb-/	.	.	.	.	.	.	.	.	.	.	.	.	.	.	.	.	.
4F\	7 n	.	4e-\	.	8f/yy	.	(8an/L	.	.	.	.	.	.	.	4aan\	-su	.	.	.	.	4cc\	.	4aa\	.
.	.	.	.	.	8c/Jyy	.	16g/L	.	.	.	.	.	.	.	.	.	.	.	.	.	.	.	.	.
.	.	.	.	.	.	.	16a/JJ)	.	.	.	.	.	.	.	.	.	.	.	.	.	.	.	.	.
=41	=41	=41	=41	=41	=41	=41	=41	=41	=41	=41	=41	=41	=41	=41	=41	=41	=41	=41	=41	=41	=41	=41	=41	=41
!	!	!	!	!	!	!	!	!LO:DY:t=f.	!	!	!	!	!	!	!	!	!	!	!	!	!	!	!	!
4B-\	.	.	4B-/	.	4d/yy	.	4b-/	f	00r	.	1r	.	.	.	4bb-\	Chri-	.	.	.	.	4dd\	.	4bb-\	.
4BB-/	.	.	4B-/	.	4d/yy	.	4B-/	.	.	.	.	.	.	.	4b-\	-ste,	.	.	.	.	4dd\	.	4bb-\	.
2r	.	.	2r	.	2ryy	.	4r	.	.	.	.	.	.	.	2r	.	.	.	.	.	2r	.	2r	.
.	.	.	.	.	.	.	4dd\	.	.	.	.	.	.	.	.	.	.	.	.	.	.	.	.	.
=42	=42	=42	=42	=42	=42	=42	=42	=42	=42	=42	=42	=42	=42	=42	=42	=42	=42	=42	=42	=42	=42	=42	=42	=42
*	*	*	*tremolo	*	*	*	*	*	*	*	*	*	*	*	*	*	*	*	*	*	*	*	*	*
4An\	6_ 3_	.	8f\L	p	8f/L	p	4.cc\	p	.	.	1r	.	2an\	Do-	2cc\	Do-	.	.	1f	p	2a\	.	2cc\	.
.	.	.	8f\	.	8f/	.	.	.	.	.	.	.	.	.	.	.	.	.	.	.	.	.	.	.
4F\	.	.	8f\	.	8An/	.	.	.	.	.	.	.	.	.	.	.	.	.	.	.	.	.	.	.
.	.	.	8f\J	.	8A/J	.	8cc\	.	.	.	.	.	.	.	.	.	.	.	.	.	.	.	.	.
4B-\	6_	.	8f\L	.	8f/L	.	(8dd-X\L	.	.	.	.	.	4b-\	-mi-	4dd-X\	-mi-	.	.	.	.	2b-\	.	2dd-X\	.
.	.	.	8f\	.	8f/	.	8b-\)	.	.	.	.	.	.	.	.	.	.	.	.	.	.	.	.	.
4F\	.	.	8f\	.	8B-/	.	(8dd-\	.	.	.	.	.	4b-\	-ne	4dd-\	-ne	.	.	.	.	.	.	.	.
.	.	.	8f\J	.	8B-/J	.	8b-\J)	.	.	.	.	.	.	.	.	.	.	.	.	.	.	.	.	.
!	!	!	!	!	!	!	!	!	!	!	!	!	!	!	!LO:LB:g=original	!	!	!	!	!	!	!	!	!
=43	=43	=43	=43	=43	=43	=43	=43	=43	=43	=43	=43	=43	=43	=43	=43	=43	=43	=43	=43	=43	=43	=43	=43	=43
!	!	!	!	!	!	!	!	!	!	!	!	!	!LO:SIC:v:s=2an\	!	!	!	!	!	!	!	!	!	!	!
4An\	6_ 3_	.	8f\L	.	8f/L	.	8cc\L	.	.	.	1r	.	2a-\	De-	2cc\	De-	.	.	1f	.	4a\	.	4cc\	.
.	.	.	8f\	.	8f/	.	8an\J	.	.	.	.	.	.	.	.	.	.	.	.	.	.	.	.	.
4F\	.	.	8f\	.	8c/	.	8r	.	.	.	.	.	.	.	.	.	.	.	.	.	4a\	.	4cc\	.
.	.	.	8f\J	.	8c/J	.	8a\	.	.	.	.	.	.	.	.	.	.	.	.	.	.	.	.	.
!	!	!	!	!	!	!	!	!	!	!	!	!	!LO:SIC:v:s=2an\	!	!	!	!	!	!	!	!	!	!	!
4A\	.	.	8f\L	.	8f/L	.	(8cc\L	.	.	.	.	.	2a-\	-us	2cc\	-us	.	.	.	.	2r	.	2r	.
.	.	.	8f\	.	8f/	.	8ff\)	.	.	.	.	.	.	.	.	.	.	.	.	.	.	.	.	.
4F\	.	.	8f\	.	8An/	.	(8een\	.	.	.	.	.	.	.	.	.	.	.	.	.	.	.	.	.
.	.	.	8f\J	.	8A/J	.	8ff\J)	.	.	.	.	.	.	.	.	.	.	.	.	.	.	.	.	.
=44	=44	=44	=44	=44	=44	=44	=44	=44	=44	=44	=44	=44	=44	=44	=44	=44	=44	=44	=44	=44	=44	=44	=44	=44
!	!	!	!	!	!	!	!	!	!	!	!	!	!LO:SIC:v:s=2an\	!	!	!	!	!	!	!	!	!	!	!
4An\	6_ 3_	.	8f\L	.	8f/L	.	4.cc\	.	.	.	1r	.	2a-\	Ag-	2cc\	Ag-	0r	.	1f	.	2a\	.	2cc\	.
.	.	.	8f\	.	8f/	.	.	.	.	.	.	.	.	.	.	.	.	.	.	.	.	.	.	.
4F\	.	.	8f\	.	8An/	.	.	.	.	.	.	.	.	.	.	.	.	.	.	.	.	.	.	.
.	.	.	8f\J	.	8A/J	.	8cc\	.	.	.	.	.	.	.	.	.	.	.	.	.	.	.	.	.
!	!	!	!	!	!	!	!LO:LB:g=original	!	!	!	!	!	!	!	!	!	!	!	!	!	!	!	!	!
4B-\	6_	.	8f\L	.	8f/L	.	(8dd-X\L	.	.	.	.	.	2b-\	-nus	2dd-X\	-nus	.	.	.	.	2b-\	.	2dd-X\	.
.	.	.	8f\	.	8f/	.	8b-\)	.	.	.	.	.	.	.	.	.	.	.	.	.	.	.	.	.
4F\	.	.	8f\	.	8B-/	.	(8dd-\	.	.	.	.	.	.	.	.	.	.	.	.	.	.	.	.	.
.	.	.	8f\J	.	8B-/J	.	8b-\J)	.	.	.	.	.	.	.	.	.	.	.	.	.	.	.	.	.
=45	=45	=45	=45	=45	=45	=45	=45	=45	=45	=45	=45	=45	=45	=45	=45	=45	=45	=45	=45	=45	=45	=45	=45	=45
4An\	6_ 3_	.	8f\L	.	8f/L	.	(8cc\L	.	0r	.	1r	.	2an\	De-	2cc\	De-	.	.	1f	.	4a\	.	4cc\	.
.	.	.	8f\	.	8f/	.	8an\J)	.	.	.	.	.	.	.	.	.	.	.	.	.	.	.	.	.
4F\	.	.	8f\	.	8c/	.	8r	.	.	.	.	.	.	.	.	.	.	.	.	.	4a\	.	4cc\	.
.	.	.	8f\J	.	8c/J	.	8a\	.	.	.	.	.	.	.	.	.	.	.	.	.	.	.	.	.
4A\	.	.	8f\L	.	8f/L	.	(8cc\L	.	.	.	.	.	2a\	-i	2cc\	-i	.	.	.	.	2r	.	2r	.
.	.	.	8f\	.	8f/	.	8ff\)	.	.	.	.	.	.	.	.	.	.	.	.	.	.	.	.	.
4F\	.	.	8f\	.	8An/	.	(8een\	.	.	.	.	.	.	.	.	.	.	.	.	.	.	.	.	.
.	.	.	8f\J	.	8A/J	.	8ff\J)	.	.	.	.	.	.	.	.	.	.	.	.	.	.	.	.	.
*	*	*	*Xtremolo	*	*	*	*	*	*	*	*	*	*	*	*	*	*	*	*	*	*	*	*	*
!	!	!	!	!	!LO:LB:g=original	!	!	!	!	!	!	!	!	!	!	!	!	!	!	!	!	!	!	!
=46	=46	=46	=46	=46	=46	=46	=46	=46	=46	=46	=46	=46	=46	=46	=46	=46	=46	=46	=46	=46	=46	=46	=46	=46
!LO:SIC:v:s=4An\	!	!	!	!	!	!	!	!	!	!	!	!	!LO:SIC:v:s=2an\	!	!	!	!	!	!	!	!LO:SIC:v:s=2an\	!	!	!
4A-\	6_ 3_	.	2f\	.	8f/L	.	4cc\	.	.	.	1r	.	2a-\	Fi-	2cc\	Fi-	1r	.	2f\	.	2a-\	.	2cc\	.
.	.	.	.	.	8f/	.	.	.	.	.	.	.	.	.	.	.	.	.	.	.	.	.	.	.
!	!	!	!	!	!LO:SIC:v:s=8An/	!	!	!	!	!	!	!	!	!	!	!	!	!	!	!	!	!	!	!
4F\	.	.	.	.	8A-/	.	8cc\L|	.	.	.	.	.	.	.	.	.	.	.	.	.	.	.	.	.
!	!	!	!	!	!LO:SIC:v:s=8An/J	!	!	!	!	!	!	!	!	!	!	!	!	!	!	!	!	!	!	!
.	.	.	.	.	8A-/J	.	8cc\J|	.	.	.	.	.	.	.	.	.	.	.	.	.	.	.	.	.
4C\	5_ n_	.	2d\	.	8G/L	.	(8een\L	.	.	.	.	.	4g\	-li-	4een\	-li-	.	.	2r	.	2b-\	.	2eeX\	.
.	.	.	.	.	8G/	.	8gg\)	.	.	.	.	.	.	.	.	.	.	.	.	.	.	.	.	.
8En\L	.	.	.	.	8B-/	.	(8bb-\	.	.	.	.	.	4g\	-us	4ee\	-us	.	.	.	.	.	.	.	.
8G\J	.	.	.	.	8B-/J	.	8ee\J)	.	.	.	.	.	.	.	.	.	.	.	.	.	.	.	.	.
!LO:LB:g=original	!	!	!LO:LB:g=original	!	!	!	!	!	!LO:LB:g=original	!	!	!	!	!	!	!	!	!	!LO:LB:g=original	!	!LO:LB:g=original	!	!LO:LB:g=original	!
=47	=47	=47	=47	=47	=47	=47	=47	=47	=47	=47	=47	=47	=47	=47	=47	=47	=47	=47	=47	=47	=47	=47	=47	=47
!	!	!	!	!	!	!	!	!	!	!	!LO:TX:a:t=1	!	!LO:SIC:v:s=4an\	!	!	!	!	!	!	!	!	!	!	!
4F\	n	.	4f\	.	4An/	.	4ff\	.	1r;	.	1r;	.	4a-\	Pa-	4ff\	Pa-	4f\	.	4f\	.	[4a/	.	4ff\	.
!	!	!	!	!	!	!	!	!	!	!	!	!	!LO:SIC:v:s=4an;\	!	!	!	!	!	!	!	!LO:TX:t=P:problem=fermata nad dwiema nutami	!	!	!
4F;\	.	.	4f;\	.	4A;/	.	4f;</	.	.	.	.	.	4a-;\	-tris	4ff;\	-tris,	4f;\	.	4f;\	.	4a;/]	.	4ff;\	.
2r	.	.	2r	.	2r	.	4r	.	.	.	.	.	2r	.	2r	.	2r	.	2r	.	2r	.	2r	.
.	.	.	.	.	.	.	4f/	.	.	.	.	.	.	.	.	.	.	.	.	.	.	.	.	.
!	!	!	!	!	!	!	!	!	!	!	!	!	!LO:LB:g=original	!	!	!	!	!	!	!	!	!	!	!
=48	=48	=48	=48	=48	=48	=48	=48	=48	=48	=48	=48	=48	=48	=48	=48	=48	=48	=48	=48	=48	=48	=48	=48	=48
!LO:TX:b:i:t=pedale	!	!	!	!	!	!LO:DY:rj	!	!LO:DY:rj:t=p.	!LO:TX:a:t=2	!	!	!	!LO:TX:a:t=2	!	!LO:TX:a:t=2	!	!LO:TX:a:t=2	!	!	!	!LO:TX:a:t=2	!	!LO:TX:a:t=2	!
1F	.	.	0r	.	1c	p	(8an\L	p	0r	.	0r	.	0r	.	0r	.	0r	.	0r	.	0r	.	0r	.
.	.	.	.	.	.	.	8cc\)	.	.	.	.	.	.	.	.	.	.	.	.	.	.	.	.	.
.	.	.	.	.	.	.	(8a\	.	.	.	.	.	.	.	.	.	.	.	.	.	.	.	.	.
.	.	.	.	.	.	.	8cc\J)	.	.	.	.	.	.	.	.	.	.	.	.	.	.	.	.	.
.	.	.	.	.	.	.	(8a\L	.	.	.	.	.	.	.	.	.	.	.	.	.	.	.	.	.
.	.	.	.	.	.	.	8cc\)	.	.	.	.	.	.	.	.	.	.	.	.	.	.	.	.	.
.	.	.	.	.	.	.	(8ee-\	.	.	.	.	.	.	.	.	.	.	.	.	.	.	.	.	.
.	.	.	.	.	.	.	8cc\J)	.	.	.	.	.	.	.	.	.	.	.	.	.	.	.	.	.
=49	=49	=49	=49	=49	=49	=49	=49	=49	=49	=49	=49	=49	=49	=49	=49	=49	=49	=49	=49	=49	=49	=49	=49	=49
1F#X	.	.	.	.	1An	.	(8an\L	.	.	.	.	.	.	.	.	.	.	.	.	.	.	.	.	.
.	.	.	.	.	.	.	8cc\)	.	.	.	.	.	.	.	.	.	.	.	.	.	.	.	.	.
.	.	.	.	.	.	.	(8a\	.	.	.	.	.	.	.	.	.	.	.	.	.	.	.	.	.
.	.	.	.	.	.	.	8cc\J)	.	.	.	.	.	.	.	.	.	.	.	.	.	.	.	.	.
.	.	.	.	.	.	.	(8an\L	.	.	.	.	.	.	.	.	.	.	.	.	.	.	.	.	.
.	.	.	.	.	.	.	8cc\	.	.	.	.	.	.	.	.	.	.	.	.	.	.	.	.	.
.	.	.	.	.	.	.	8ee-\	.	.	.	.	.	.	.	.	.	.	.	.	.	.	.	.	.
.	.	.	.	.	.	.	8cc\J)	.	.	.	.	.	.	.	.	.	.	.	.	.	.	.	.	.
=50	=50	=50	=50	=50	=50	=50	=50	=50	=50	=50	=50	=50	=50	=50	=50	=50	=50	=50	=50	=50	=50	=50	=50	=50
.	.	.	.	.	.	.	8qqb-/	.	.	.	.	.	.	.	.	.	.	.	.	.	.	.	.	.
*tremolo	*	*	*tremolo	*	*tremolo	*	*	*	*	*	*	*	*	*	*	*	*	*	*	*	*	*	*	*
!LO:TX:a:i:t=Tutti	!	!LO:DY:t=for.	!	!	!	!	!	!LO:DY:t=ff.	!	!	!	!	!	!	!	!	!	!	!	!	!	!	!	!
8G\L	.	f	8d\L	.	16d/LL	f	2gg 2b-\	ff	2G\	Qui	2d\	Qui	2b-\	Qui	2dd\	Qui	1B-	f	1g	f	1dd	.	1gg	f
.	.	.	.	.	16d/	.	.	.	.	.	.	.	.	.	.	.	.	.	.	.	.	.	.	.
8G\	.	.	8d\	.	16d/	.	.	.	.	.	.	.	.	.	.	.	.	.	.	.	.	.	.	.
.	.	.	.	.	16d/	.	.	.	.	.	.	.	.	.	.	.	.	.	.	.	.	.	.	.
8G\	.	.	8d\	.	16d/	.	.	.	.	.	.	.	.	.	.	.	.	.	.	.	.	.	.	.
.	.	.	.	.	16d/	.	.	.	.	.	.	.	.	.	.	.	.	.	.	.	.	.	.	.
8G\J	.	.	8d\J	.	16d/	.	.	.	.	.	.	.	.	.	.	.	.	.	.	.	.	.	.	.
.	.	.	.	.	16d/JJ	.	.	.	.	.	.	.	.	.	.	.	.	.	.	.	.	.	.	.
8B-\L	6	.	8d\L	.	16d/LL	.	8gg\L	.	4B-\	tol-	4d\	tol-	4g\	tol-	4dd\	tol-	.	.	.	.	.	.	.	.
.	.	.	.	.	16d/	.	.	.	.	.	.	.	.	.	.	.	.	.	.	.	.	.	.	.
8B-\	.	.	8d\	.	16d/	.	8bb-\	.	.	.	.	.	.	.	.	.	.	.	.	.	.	.	.	.
.	.	.	.	.	16d/	.	.	.	.	.	.	.	.	.	.	.	.	.	.	.	.	.	.	.
!	!	!	!	!	!	!	!LO:SIC:v:s=8aan\	!	!	!	!	!	!	!	!	!	!	!	!	!	!	!	!	!
8B-\	.	.	8d\	.	16d/	.	8aa-\	.	4B-\	-lis	4d\	-lis	4g\	-lis	4dd\	-lis	.	.	.	.	.	.	.	.
.	.	.	.	.	16d/	.	.	.	.	.	.	.	.	.	.	.	.	.	.	.	.	.	.	.
8B-\J	.	.	8d\J	.	16d/	.	8gg\J	.	.	.	.	.	.	.	.	.	.	.	.	.	.	.	.	.
.	.	.	.	.	16d/JJ	.	.	.	.	.	.	.	.	.	.	.	.	.	.	.	.	.	.	.
=51	=51	=51	=51	=51	=51	=51	=51	=51	=51	=51	=51	=51	=51	=51	=51	=51	=51	=51	=51	=51	=51	=51	=51	=51
!LO:SIC:v:s=8An\L	!	!	!	!	!	!	!	!	!	!	!	!	!	!	!	!	!	!	!	!	!	!	!	!
8A-\L	6\	.	8an\L	.	16c/LL	.	(8gg\L	.	4An\	pec-	4d\	pec-	4an\	pec-	4cc\	pec-	1c	.	1aX	.	4dd\	.	4ff#X\	.
.	.	.	.	.	16c/	.	.	.	.	.	.	.	.	.	.	.	.	.	.	.	.	.	.	.
!LO:SIC:v:s=8A\	!	!	!	!	!	!	!	!	!	!	!	!	!	!	!	!	!	!	!	!	!	!	!	!
8A-\	.	.	8a\	.	16c/	.	8ff#X\J)	.	.	.	.	.	.	.	.	.	.	.	.	.	.	.	.	.
.	.	.	.	.	16c/	.	.	.	.	.	.	.	.	.	.	.	.	.	.	.	.	.	.	.
!LO:SIC:v:s=8A\	!	!	!	!	!	!	!LO:LB:g=original	!	!	!	!	!	!	!	!	!	!	!	!	!	!	!	!	!
8A-\	.	.	8a\	.	16c/	.	4.ff#X\	.	8A\	-ca-	8d\	-ca-	8a\	-ca-	8cc\	-ca-	.	.	.	.	2dd\	.	2ff#\	.
.	.	.	.	.	16c/	.	.	.	.	.	.	.	.	.	.	.	.	.	.	.	.	.	.	.
!LO:SIC:v:s=8A\J	!	!	!	!	!	!	!	!	!	!	!	!	!	!	!	!	!	!	!	!	!	!	!	!
8A-\J	.	.	8a\J	.	16c/	.	.	.	8A\	-ta	8d\	-ta	8a\	-ta	8cc\	-ta	.	.	.	.	.	.	.	.
.	.	.	.	.	16c/JJ	.	.	.	.	.	.	.	.	.	.	.	.	.	.	.	.	.	.	.
8F#X\L	5 3	.	8f#X\L	.	16c/LL	.	.	.	4F#X\	mun-	4d\	mun-	4a\	mun-	4cc\	mun-	.	.	.	.	.	.	.	.
.	.	.	.	.	16c/	.	.	.	.	.	.	.	.	.	.	.	.	.	.	.	.	.	.	.
8F#\	.	.	8f#\	.	16c/	.	(8ee-\L	.	.	.	.	.	.	.	.	.	.	.	.	.	.	.	.	.
.	.	.	.	.	16c/	.	.	.	.	.	.	.	.	.	.	.	.	.	.	.	.	.	.	.
8F#\	.	.	8f#\	.	16c/	.	8dd\	.	4F#\	-di	4d\	-di	4a\	-di	4cc\	-di	.	.	.	.	4cc\	.	4ee-X\	.
.	.	.	.	.	16c/	.	.	.	.	.	.	.	.	.	.	.	.	.	.	.	.	.	.	.
8F#\J	.	.	8f#\J	.	16c/	.	8cc\J)	.	.	.	.	.	.	.	.	.	.	.	.	.	.	.	.	.
.	.	.	.	.	16c/JJ	.	.	.	.	.	.	.	.	.	.	.	.	.	.	.	.	.	.	.
!	!	!	!	!	!	!	!	!	!	!	!	!	!	!	!LO:LB:g=original	!	!	!	!	!	!	!	!	!
=52	=52	=52	=52	=52	=52	=52	=52	=52	=52	=52	=52	=52	=52	=52	=52	=52	=52	=52	=52	=52	=52	=52	=52	=52
8G\L	3_	.	8d\L	.	16d/LL	.	(8cc\L	.	4G\	mi-	4d\	mi-	4g\	mi-	4b-\	mi-	1B-	.	1g	.	2b-\	.	2dd\	.
.	.	.	.	.	16d/	.	.	.	.	.	.	.	.	.	.	.	.	.	.	.	.	.	.	.
8G\	.	.	8d\	.	16d/	.	8b-\)	.	.	.	.	.	.	.	.	.	.	.	.	.	.	.	.	.
.	.	.	.	.	16d/	.	.	.	.	.	.	.	.	.	.	.	.	.	.	.	.	.	.	.
8G\	.	.	8d\	.	16d/	.	8b-\|	.	4G\	-ſe-	4d\	-ſe-	4g\	-ſe-	4b-\	-se-	.	.	.	.	.	.	.	.
.	.	.	.	.	16d/	.	.	.	.	.	.	.	.	.	.	.	.	.	.	.	.	.	.	.
8G\J	.	.	8d\J	.	16d/	.	8b-\J|	.	.	.	.	.	.	.	.	.	.	.	.	.	.	.	.	.
.	.	.	.	.	16d/JJ	.	.	.	.	.	.	.	.	.	.	.	.	.	.	.	.	.	.	.
8G\L	.	.	8d\L	.	16d/LL	.	(8dd\L	.	4G\	-re-	4d\	-re-	4g\	-re-	4b-\	-re-	.	.	.	.	2g/	.	2b-\	.
.	.	.	.	.	16d/	.	.	.	.	.	.	.	.	.	.	.	.	.	.	.	.	.	.	.
8G\	.	.	8d\	.	16d/	.	8b-\)	.	.	.	.	.	.	.	.	.	.	.	.	.	.	.	.	.
.	.	.	.	.	16d/	.	.	.	.	.	.	.	.	.	.	.	.	.	.	.	.	.	.	.
8G\	.	.	8d\	.	16d/	.	(8an\	.	4G\	-re	4d\	-re	4g\	-re	4b-\	-re	.	.	.	.	.	.	.	.
.	.	.	.	.	16d/	.	.	.	.	.	.	.	.	.	.	.	.	.	.	.	.	.	.	.
8G\J	.	.	8d\J	.	16d/	.	8g\J)	.	.	.	.	.	.	.	.	.	.	.	.	.	.	.	.	.
.	.	.	.	.	16d/JJ	.	.	.	.	.	.	.	.	.	.	.	.	.	.	.	.	.	.	.
!	!	!	!	!	!	!	!	!	!	!	!LO:LB:g=original	!	!	!	!	!	!	!	!	!	!	!	!	!
=53	=53	=53	=53	=53	=53	=53	=53	=53	=53	=53	=53	=53	=53	=53	=53	=53	=53	=53	=53	=53	=53	=53	=53	=53
!	!	!	!	!	!	!	!	!	!	!	!	!	!	!	!	!	!LO:TX:a:t=1	!	!	!	!	!	!LO:SIC:v:s=4an\	!
8D\L	#	.	8d\L	.	16An/LL	.	8g/L	.	2D\	no-	2d\	no-	2f#X\	no-	2an\	no-	1r	.	1r	.	4f#X/	.	4a-\	.
.	.	.	.	.	16A/	.	.	.	.	.	.	.	.	.	.	.	.	.	.	.	.	.	.	.
8D\	.	.	8d\	.	16A/	.	8f#X/	.	.	.	.	.	.	.	.	.	.	.	.	.	.	.	.	.
.	.	.	.	.	16A/	.	.	.	.	.	.	.	.	.	.	.	.	.	.	.	.	.	.	.
8D\	.	.	8d\	.	16A/	.	8an/	.	.	.	.	.	.	.	.	.	.	.	.	.	4f#/	.	4dd\	.
.	.	.	.	.	16A/	.	.	.	.	.	.	.	.	.	.	.	.	.	.	.	.	.	.	.
8D\J	.	.	8d\J	.	16A/	.	8f#/J	.	.	.	.	.	.	.	.	.	.	.	.	.	.	.	.	.
.	.	.	.	.	16A/JJ	.	.	.	.	.	.	.	.	.	.	.	.	.	.	.	.	.	.	.
!	!	!	!	!	!	!	!LO:TX:t=P:problem=mixed beam	!	!	!	!	!	!	!	!	!	!	!	!	!	!	!	!	!
8F#X\L	6	.	8An/L	.	16d/LL	.	8d/L|	.	4D\	-bis	4d\	-bis	4f#\	-bis	4a\	-bis,	.	.	.	.	4f#/	.	4dd\	.
.	.	.	.	.	16d/	.	.	.	.	.	.	.	.	.	.	.	.	.	.	.	.	.	.	.
8F#\	.	.	8A/	.	16d/	.	(8dd\	.	.	.	.	.	.	.	.	.	.	.	.	.	.	.	.	.
.	.	.	.	.	16d/	.	.	.	.	.	.	.	.	.	.	.	.	.	.	.	.	.	.	.
8F#\	.	.	8A/	.	16d/	.	8ff#X\	.	4r	.	4r	.	4r	.	4r	.	.	.	.	.	4r	.	4r	.
.	.	.	.	.	16d/	.	.	.	.	.	.	.	.	.	.	.	.	.	.	.	.	.	.	.
!	!	!	!	!	!	!	!LO:SIC:v:s=8aan\J)	!	!	!	!	!	!	!	!	!	!	!	!	!	!	!	!	!
8F#\J	.	.	8A/J	.	16d/	.	8aa-\J)	.	.	.	.	.	.	.	.	.	.	.	.	.	.	.	.	.
.	.	.	.	.	16d/JJ	.	.	.	.	.	.	.	.	.	.	.	.	.	.	.	.	.	.	.
!	!	!	!	!	!	!	!	!	!	!	!	!	!	!	!	!	!LO:PB:g=original	!	!	!	!	!	!	!
=54	=54	=54	=54	=54	=54	=54	=54	=54	=54	=54	=54	=54	=54	=54	=54	=54	=54	=54	=54	=54	=54	=54	=54	=54
!	!	!	!	!	!LO:TX:t=P:problem=takty 53-56 zapisane repetycją	!	!	!	!	!	!	!	!	!	!	!	!	!	!	!	!	!	!	!
8G\L	.	.	8d\L	.	16d/yyLL	.	[2gg 2b-\	ff	2G\	qui	2d\	Qui	2b-\	Qui	2dd\	Qui	1B-	.	1g	.	2dd\	.	1gg	.
.	.	.	.	.	16d/yy	.	.	.	.	.	.	.	.	.	.	.	.	.	.	.	.	.	.	.
8G\	.	.	8d\	.	16d/yy	.	.	.	.	.	.	.	.	.	.	.	.	.	.	.	.	.	.	.
.	.	.	.	.	16d/yy	.	.	.	.	.	.	.	.	.	.	.	.	.	.	.	.	.	.	.
8G\	.	.	8d\	.	16d/yy	.	.	.	.	.	.	.	.	.	.	.	.	.	.	.	.	.	.	.
.	.	.	.	.	16d/yy	.	.	.	.	.	.	.	.	.	.	.	.	.	.	.	.	.	.	.
8G\J	.	.	8d\J	.	16d/yy	.	.	.	.	.	.	.	.	.	.	.	.	.	.	.	.	.	.	.
.	.	.	.	.	16d/yyJJ	.	.	.	.	.	.	.	.	.	.	.	.	.	.	.	.	.	.	.
8B-\L	6	.	8d\L	.	16d/yyLL	.	8gg\L]	.	4B-\	tol-	4d\	tol-	4g\	tol-	4dd\	tol-	.	.	.	.	2dd\	.	.	.
.	.	.	.	.	16d/yy	.	.	.	.	.	.	.	.	.	.	.	.	.	.	.	.	.	.	.
8B-\	.	.	8d\	.	16d/yy	.	8bb-\	.	.	.	.	.	.	.	.	.	.	.	.	.	.	.	.	.
.	.	.	.	.	16d/yy	.	.	.	.	.	.	.	.	.	.	.	.	.	.	.	.	.	.	.
8B-\	.	.	8d\	.	16d/yy	.	(8aan\	.	4B-\	-lis	4d\	-liſ	4g\	-lis	4dd\	-lis	.	.	.	.	.	.	.	.
.	.	.	.	.	16d/yy	.	.	.	.	.	.	.	.	.	.	.	.	.	.	.	.	.	.	.
8B-\J	.	.	8d\J	.	16d/yy	.	8gg\J)	.	.	.	.	.	.	.	.	.	.	.	.	.	.	.	.	.
.	.	.	.	.	16d/yyJJ	.	.	.	.	.	.	.	.	.	.	.	.	.	.	.	.	.	.	.
=55	=55	=55	=55	=55	=55	=55	=55	=55	=55	=55	=55	=55	=55	=55	=55	=55	=55	=55	=55	=55	=55	=55	=55	=55
!LO:SIC:v:s=8An\L	!	!	!	!	!	!	!	!	!LO:SIC:v:s=2An\	!	!	!	!LO:SIC:v:s=2an\	!	!	!	!	!	!	!	!	!	!	!
8A-\L	6\	.	8an\L	.	16c/LLyy	.	8gg\L	.	2A-\	pec-	2d\	pec-	2a-\	pec-	2cc\	pec-	1c	.	1aX	.	4dd\	.	4ff#X\	.
.	.	.	.	.	16c/yy	.	.	.	.	.	.	.	.	.	.	.	.	.	.	.	.	.	.	.
!LO:SIC:v:s=8A\	!	!	!	!	!	!	!	!	!	!	!	!	!	!	!	!	!	!	!	!	!	!	!	!
8A-\	.	.	8a\	.	16c/yy	.	8ff#X\J	.	.	.	.	.	.	.	.	.	.	.	.	.	.	.	.	.
.	.	.	.	.	16c/yy	.	.	.	.	.	.	.	.	.	.	.	.	.	.	.	.	.	.	.
!LO:SIC:v:s=8A\	!	!	!	!	!	!	!	!	!	!	!	!	!	!	!	!	!	!	!	!	!	!	!	!
8A-\	.	.	8a\	.	16c/yy	.	4.ff#\	.	.	.	.	.	.	.	.	.	.	.	.	.	2dd\	.	2ff#\	.
.	.	.	.	.	16c/yy	.	.	.	.	.	.	.	.	.	.	.	.	.	.	.	.	.	.	.
!LO:SIC:v:s=8A\J	!	!	!	!	!	!	!	!	!	!	!	!	!	!	!	!	!	!	!	!	!	!	!	!
8A-\J	.	.	8a\J	.	16c/yy	.	.	.	.	.	.	.	.	.	.	.	.	.	.	.	.	.	.	.
.	.	.	.	.	16c/JJyy	.	.	.	.	.	.	.	.	.	.	.	.	.	.	.	.	.	.	.
!	!	!	!	!	!	!	!	!	!	!	!	!	!LO:SIC:v:s=4an\	!	!	!	!	!	!	!	!	!	!	!
8F#X\L	5 3	.	8f#X\L	.	16c/yyLL	.	.	.	4F#X\	-ca-	4d\	-ca-	4a-\	-ca-	4cc\	-ca-	.	.	.	.	.	.	.	.
.	.	.	.	.	16c/yy	.	.	.	.	.	.	.	.	.	.	.	.	.	.	.	.	.	.	.
8F#\	.	.	8f#\	.	16c/yy	.	(8ee-\L	.	.	.	.	.	.	.	.	.	.	.	.	.	.	.	.	.
.	.	.	.	.	16c/yy	.	.	.	.	.	.	.	.	.	.	.	.	.	.	.	.	.	.	.
!	!	!	!	!	!	!	!	!	!	!	!	!	!LO:SIC:v:s=4an\	!	!	!	!	!	!	!	!	!	!	!
8F#\	.	.	8f#\	.	16c/yy	.	8dd\	.	4F#\	-ta	4d\	-ta	4a-\	-ta	4cc\	-ta	.	.	.	.	4cc\	.	4ee-X\	.
.	.	.	.	.	16c/yy	.	.	.	.	.	.	.	.	.	.	.	.	.	.	.	.	.	.	.
8F#\J	.	.	8f#\J	.	16c/yy	.	8cc\J)	.	.	.	.	.	.	.	.	.	.	.	.	.	.	.	.	.
.	.	.	.	.	16c/yyJJ	.	.	.	.	.	.	.	.	.	.	.	.	.	.	.	.	.	.	.
!	!	!	!LO:LB:g=original	!	!	!	!	!	!	!	!	!	!LO:LB:g=original	!	!	!	!	!	!	!	!	!	!	!
=56	=56	=56	=56	=56	=56	=56	=56	=56	=56	=56	=56	=56	=56	=56	=56	=56	=56	=56	=56	=56	=56	=56	=56	=56
8G\L	.	.	8d\L	.	16d/LLyy	.	(8cc\L	.	2G\	mun-	2d\	mun-	2g\	mun-	2b-\	mun-	1B-	.	1g	.	2b-/	.	2dd\	.
.	.	.	.	.	16d/yy	.	.	.	.	.	.	.	.	.	.	.	.	.	.	.	.	.	.	.
8G\	.	.	8d\	.	16d/yy	.	8b-\)	.	.	.	.	.	.	.	.	.	.	.	.	.	.	.	.	.
.	.	.	.	.	16d/yy	.	.	.	.	.	.	.	.	.	.	.	.	.	.	.	.	.	.	.
8G\	.	.	8d\	.	16d/yy	.	8b-\|	.	.	.	.	.	.	.	.	.	.	.	.	.	.	.	.	.
.	.	.	.	.	16d/yy	.	.	.	.	.	.	.	.	.	.	.	.	.	.	.	.	.	.	.
8G\J	.	.	8d\J	.	16d/yy	.	8b-\J|	.	.	.	.	.	.	.	.	.	.	.	.	.	.	.	.	.
.	.	.	.	.	16d/JJ	.	.	.	.	.	.	.	.	.	.	.	.	.	.	.	.	.	.	.
8G\L	.	.	8d\L	.	16d/yyLL	.	(8dd\L	.	2G\	-di	2d\	-di	2g\	-di	2b-\	-di	.	.	.	.	2g/	.	2b-\	.
.	.	.	.	.	16d/yy	.	.	.	.	.	.	.	.	.	.	.	.	.	.	.	.	.	.	.
8G\	.	.	8d\	.	16d/yy	.	8b-\)	.	.	.	.	.	.	.	.	.	.	.	.	.	.	.	.	.
.	.	.	.	.	16d/yy	.	.	.	.	.	.	.	.	.	.	.	.	.	.	.	.	.	.	.
!	!	!	!	!	!	!	!LO:SIC:v:s=(8an\	!	!	!	!	!	!	!	!	!	!	!	!	!	!	!	!	!
8G\	.	.	8d\	.	16d/yy	.	(8a-\	.	.	.	.	.	.	.	.	.	.	.	.	.	.	.	.	.
.	.	.	.	.	16d/yy	.	.	.	.	.	.	.	.	.	.	.	.	.	.	.	.	.	.	.
8G\J	.	.	8d\J	.	16d/yy	.	8g\J)	.	.	.	.	.	.	.	.	.	.	.	.	.	.	.	.	.
.	.	.	.	.	16d/yyJJ	.	.	.	.	.	.	.	.	.	.	.	.	.	.	.	.	.	.	.
!	!	!	!	!	!	!	!	!	!LO:LB:g=original	!	!	!	!	!	!	!	!	!	!	!	!	!	!	!
=57	=57	=57	=57	=57	=57	=57	=57	=57	=57	=57	=57	=57	=57	=57	=57	=57	=57	=57	=57	=57	=57	=57	=57	=57
!	!	!	!	!	!	!	!	!	!	!	!	!	!	!	!LO:SIC:v:s=2an\	!	!	!	!	!	!	!	!	!
8D\L	#	.	8d\L	.	16An/LLyy	.	(8g/L	.	2D\	ſus-	2d\	ſus-	2f#X\	ſus-	2a-\	ſus-	1r	.	1r	.	4f#X/	.	4a\	.
.	.	.	.	.	16A/yy	.	.	.	.	.	.	.	.	.	.	.	.	.	.	.	.	.	.	.
8D\	.	.	8d\	.	16A/yy	.	8f#X/)	.	.	.	.	.	.	.	.	.	.	.	.	.	.	.	.	.
.	.	.	.	.	16A/yy	.	.	.	.	.	.	.	.	.	.	.	.	.	.	.	.	.	.	.
!	!	!	!	!	!	!	!LO:SIC:v:s=(8an/	!	!	!	!	!	!	!	!	!	!	!	!	!	!	!	!	!
8D\	.	.	8d\	.	16A/yy	.	(8a-/	.	.	.	.	.	.	.	.	.	.	.	.	.	4f#/	.	4dd\	.
.	.	.	.	.	16A/yy	.	.	.	.	.	.	.	.	.	.	.	.	.	.	.	.	.	.	.
8D\J	.	.	8d\J	.	16A/yy	.	8f#/J)	.	.	.	.	.	.	.	.	.	.	.	.	.	.	.	.	.
.	.	.	.	.	16A/JJyy	.	.	.	.	.	.	.	.	.	.	.	.	.	.	.	.	.	.	.
!	!	!	!	!	!	!	!LO:TX:t=P:problem=mixed beam	!	!	!	!	!	!	!	!LO:SIC:v:s=4an\	!	!	!	!	!	!	!	!	!
8F#X\L	6	.	8An/L	.	16d/yyLL	.	8d/L|	.	4D\	-ci-	4d\	-ci-	4f#\	-ci-	4a-\	-ci-	.	.	.	.	4f#/	.	4dd\	.
.	.	.	.	.	16d/yy	.	.	.	.	.	.	.	.	.	.	.	.	.	.	.	.	.	.	.
8F#\	.	.	8A/	.	16d/yy	.	(8dd\	.	.	.	.	.	.	.	.	.	.	.	.	.	.	.	.	.
.	.	.	.	.	16d/yy	.	.	.	.	.	.	.	.	.	.	.	.	.	.	.	.	.	.	.
!	!	!	!	!	!	!	!	!	!	!	!	!	!LO:SIC:v:s=4an\	!	!	!	!	!	!	!	!	!	!	!
8F#\	.	.	8A/	.	16d/yy	.	8ff#X\	.	4D\	-pe	4d\	-pe	4a-\	-pe	4ff#X\	-pe	.	.	.	.	4r	.	4r	.
.	.	.	.	.	16d/yy	.	.	.	.	.	.	.	.	.	.	.	.	.	.	.	.	.	.	.
!	!	!	!	!	!	!	!LO:SIC:v:s=8aan\J)	!	!	!	!	!	!	!	!	!	!	!	!	!	!	!	!	!
8F#\J	.	.	8A/J	.	16d/yy	.	8aa-\J)	.	.	.	.	.	.	.	.	.	.	.	.	.	.	.	.	.
.	.	.	.	.	16d/yyJJ	.	.	.	.	.	.	.	.	.	.	.	.	.	.	.	.	.	.	.
*	*	*	*	*	*Xtremolo	*	*	*	*	*	*	*	*	*	*	*	*	*	*	*	*	*	*	*
!	!	!	!	!	!	!	!LO:PB:g=original	!	!	!	!	!	!	!	!	!	!	!	!	!	!LO:LB:g=original	!	!LO:LB:g=original	!
=58	=58	=58	=58	=58	=58	=58	=58	=58	=58	=58	=58	=58	=58	=58	=58	=58	=58	=58	=58	=58	=58	=58	=58	=58
*	*	*	*	*	*	*	*	*	*	*ij	*	*ij	*	*ij	*	*	*	*	*	*	*	*	*	*
8G\L	n	.	8d\L	.	8Bn/L|	.	4.gg\	.	2G\	ſus-	2d\	ſus-	2bn\	ſus-	2gg\	sus-	1G	.	1g	.	1bX	.	1gg	.
8G\	.	.	8d\	.	8B/|	.	.	.	.	.	.	.	.	.	.	.	.	.	.	.	.	.	.	.
8G\	.	.	8d\	.	(8B/	.	.	.	.	.	.	.	.	.	.	.	.	.	.	.	.	.	.	.
8G\J	.	.	8d\J	.	8d/J)	.	8bbn\	.	.	.	.	.	.	.	.	.	.	.	.	.	.	.	.	.
8Bn\L	6	.	8d\L	.	8g/L|	.	(8ddd\L	.	4Bn\	-ci-	4d\	-ci-	4b\	-ci-	4gg\	-ci-	.	.	.	.	.	.	.	.
8B\	.	.	8d\	.	8g/|	.	8bbn\)	.	.	.	.	.	.	.	.	.	.	.	.	.	.	.	.	.
8B\	.	.	8d\	.	(8bn/	.	(8gg\	.	4B\	-pe	4d\	-pe	4b\	-pe	4gg\	-pe	.	.	.	.	.	.	.	.
*	*	*	*	*	*	*	*	*	*	*Xij	*	*Xij	*	*Xij	*	*	*	*	*	*	*	*	*	*
8B\J	.	.	8d\J	.	8dd/J)	.	8ffn\J)	.	.	.	.	.	.	.	.	.	.	.	.	.	.	.	.	.
!LO:LB:g=original	!	!	!	!	!LO:PB:g=original	!	!	!	!	!	!	!	!	!	!	!	!	!	!	!	!	!	!	!
=59	=59	=59	=59	=59	=59	=59	=59	=59	=59	=59	=59	=59	=59	=59	=59	=59	=59	=59	=59	=59	=59	=59	=59	=59
*	*	*	*	*	*k[b-e-a-]	*	*	*	*	*	*	*	*	*	*	*	*	*	*	*	*	*	*	*
8c\L	5 3	.	8g\L	.	8cc\|	.	8ee-\	.	4c\	de-	4c\	de-	4g\	de-	4ee-\	de-	1E-	.	1e-	.	1cc	.	1ee-X	.
8c\	.	.	8g\	.	(<4cc\	.	4ee-\	.	.	.	.	.	.	.	.	.	.	.	.	.	.	.	.	.
8c\	.	.	8g\	.	.	.	.	.	4c\	-pre-	4c\	-pre-	4g\	-pre-	4ee-\	-pre-	.	.	.	.	.	.	.	.
8c\J	.	.	8g\J	.	4g/	.	4ee-\	.	.	.	.	.	.	.	.	.	.	.	.	.	.	.	.	.
8C/L	.	.	8g\L	.	.	.	.	.	4C/	-ca-	4c\	-ca-	4g\	-ca-	4ee-\	-ca-	.	.	.	.	.	.	.	.
8C/	.	.	8g\	.	4e-/	.	4ee-\	.	.	.	.	.	.	.	.	.	.	.	.	.	.	.	.	.
8C/	.	.	8g\	.	.	.	.	.	4C/	-ti-	4c\	-ti-	4g\	-ti-	4ee-\	-ti-	.	.	.	.	.	.	.	.
8C/J	.	.	8g\J	.	8c/)	.	8ee-\	.	.	.	.	.	.	.	.	.	.	.	.	.	.	.	.	.
!	!	!	!	!	!	!	!	!	!	!	!	!	!	!	!LO:LB:g=original	!	!	!	!	!	!	!	!	!
=60	=60	=60	=60	=60	=60	=60	=60	=60	=60	=60	=60	=60	=60	=60	=60	=60	=60	=60	=60	=60	=60	=60	=60	=60
8F\L	n	.	8c\L	.	8An/L|	.	4.ff\	.	2F\	-o-	2c\	-o-	2an\	-o-	2ffn\	-o-	1f	.	1f	.	1a	.	1ff	.
8F\	.	.	8c\	.	8A/|	.	.	.	.	.	.	.	.	.	.	.	.	.	.	.	.	.	.	.
8F\	.	.	8c\	.	(8A/	.	.	.	.	.	.	.	.	.	.	.	.	.	.	.	.	.	.	.
8F\J	.	.	8c\J	.	8c/J)	.	8aan\	.	.	.	.	.	.	.	.	.	.	.	.	.	.	.	.	.
8An\L	6	.	8c\L	.	8f/L|	.	(8ccc\L	.	2An\	-nem	2c\	-nem	2a\	-nem	2ff\	-nem	.	.	.	.	.	.	.	.
8A\	.	.	8c\	.	8f/|	.	8aa\)	.	.	.	.	.	.	.	.	.	.	.	.	.	.	.	.	.
8A\	.	.	8c\	.	(8an/	.	(8ff\	.	.	.	.	.	.	.	.	.	.	.	.	.	.	.	.	.
8A\J	.	.	8c\J	.	8cc/J)	.	8ee-\J)	.	.	.	.	.	.	.	.	.	.	.	.	.	.	.	.	.
=61	=61	=61	=61	=61	=61	=61	=61	=61	=61	=61	=61	=61	=61	=61	=61	=61	=61	=61	=61	=61	=61	=61	=61	=61
8B-\L	5 3	.	8f\L	.	8b-/	.	8dd\	.	2B-\	noſ-	2B-\	noſ-	2f\	noſ-	2dd\	noſ-	1B-	.	1f	.	1b-X	.	1dd	.
8B-\	.	.	8f\	.	4b-/	.	4dd\	.	.	.	.	.	.	.	.	.	.	.	.	.	.	.	.	.
8B-\	.	.	8f\	.	.	.	.	.	.	.	.	.	.	.	.	.	.	.	.	.	.	.	.	.
8B-\J	.	.	8f\J	.	4f/	.	4dd\	.	.	.	.	.	.	.	.	.	.	.	.	.	.	.	.	.
8BB-/L	.	.	8f\L	.	.	.	.	.	2BB-/	-tram	2B-\	-tram	2f\	-tram	2dd\	-tram	.	.	.	.	.	.	.	.
8BB-/	.	.	8f\	.	4d/	.	4dd\	.	.	.	.	.	.	.	.	.	.	.	.	.	.	.	.	.
8BB-/	.	.	8f\	.	.	.	.	.	.	.	.	.	.	.	.	.	.	.	.	.	.	.	.	.
8BB-/J	.	.	8f\J	.	8B-/	.	8dd\	.	.	.	.	.	.	.	.	.	.	.	.	.	.	.	.	.
*Xtremolo	*	*	*	*	*	*	*	*	*	*	*	*	*	*	*	*	*	*	*	*	*	*	*	*
!	!	!	!	!	!	!	!	!	!	!	!LO:LB:g=original	!	!	!	!	!	!	!	!	!	!	!	!	!
=62	=62	=62	=62	=62	=62	=62	=62	=62	=62	=62	=62	=62	=62	=62	=62	=62	=62	=62	=62	=62	=62	=62	=62	=62
8BB-/L	5 3	.	8f\L	.	8d/L	.	4.ff\	.	2BB-/	Qui	2d\	Qui	2b-\	qui	2ff\	Qui	1B-	.	1f	.	2dd\	.	2ff\	.
8D/	.	.	8f\	.	8f/	.	.	.	.	.	.	.	.	.	.	.	.	.	.	.	.	.	.	.
8BB-/	.	.	8f\	.	(8d/	.	.	.	.	.	.	.	.	.	.	.	.	.	.	.	.	.	.	.
8D/J	.	.	8f\J	.	8f/J)	.	8gg\	.	.	.	.	.	.	.	.	.	.	.	.	.	.	.	.	.
8BB-/L	-7 5	.	8f\L	.	(8d/L	.	(8aa-X\L	.	4D/	se-	4d\	se-	4b-\	se-	4ff\	se-	.	.	.	.	2ff\	.	2aa-X\	.
8D/	.	.	8f\	.	8f/)	.	8ff\)	.	.	.	.	.	.	.	.	.	.	.	.	.	.	.	.	.
8BB-/	.	.	8f\	.	(8d/	.	(8ee-\	.	4D/	-des	4d\	-des	4b-\	-des	4ff\	-des	.	.	.	.	.	.	.	.
8D/J	.	.	8f\J	.	8f/J)	.	8dd\J)	.	.	.	.	.	.	.	.	.	.	.	.	.	.	.	.	.
*	*	*	*Xtremolo	*	*	*	*	*	*	*	*	*	*	*	*	*	*	*	*	*	*	*	*	*
!	!	!	!	!	!	!	!	!	!	!	!	!	!LO:LB:g=original	!	!	!	!	!	!LO:LB:g=original	!	!	!	!	!
=63	=63	=63	=63	=63	=63	=63	=63	=63	=63	=63	=63	=63	=63	=63	=63	=63	=63	=63	=63	=63	=63	=63	=63	=63
8E-\L	5 3	.	4e-\	.	8g/L	.	8ee-\	.	4E-\	ad	4B-/	ad	4b-\	ad	4ee-\	ad	4r	.	4r	.	2ee-\	.	2gg\	.
8E-\	.	.	.	.	8g/	.	4b-\	.	.	.	.	.	.	.	.	.	.	.	.	.	.	.	.	.
8G\	.	.	4e-\	.	8e-/	.	.	.	4G\	dex-	4G/	dex-	4b-\	dex-	4ee-\	dex-	4e-\	.	4g\	.	.	.	.	.
8G\J	.	.	.	.	8e-/J	.	4b-\	.	.	.	.	.	.	.	.	.	.	.	.	.	.	.	.	.
8E-\L	.	.	4e-\	.	8g/L	.	.	.	4E-\	-te-	4G/	-te-	4b-\	-te-	4ee-\	-te-	4e-\	.	4g\	.	2b-\	.	2ee-\	.
8E-\	.	.	.	.	8g/	.	4b-\	.	.	.	.	.	.	.	.	.	.	.	.	.	.	.	.	.
8G\	.	.	4e-\	.	8e-/	.	.	.	4G\	-ram	4G/	-ram	4b-\	-ram	4ee-\	-ram	4e-\	.	4g\	.	.	.	.	.
8G\J	.	.	.	.	8e-/J	.	8b-\	.	.	.	.	.	.	.	.	.	.	.	.	.	.	.	.	.
!	!	!	!LO:LB:g=original	!	!	!	!	!	!	!	!	!	!	!	!	!	!	!	!	!	!	!	!	!
=64	=64	=64	=64	=64	=64	=64	=64	=64	=64	=64	=64	=64	=64	=64	=64	=64	=64	=64	=64	=64	=64	=64	=64	=64
*	*	*	*tremolo	*	*	*	*	*	*	*	*	*	*	*	*	*	*	*	*	*	*	*	*	*
8BB-/L	5 3	.	8f\L	.	8d/L	.	4.ff\	.	2B-\	Pa-	(4B-\	Pa-	2b-\	Pa-	2ff\	Pa-	1B-	.	1f	.	2dd\	.	2ff\	.
8D/	.	.	8f\	.	8f/	.	.	.	.	.	.	.	.	.	.	.	.	.	.	.	.	.	.	.
8BB-/	.	.	8f\	.	8d/	.	.	.	.	.	4d\)	.	.	.	.	.	.	.	.	.	.	.	.	.
8D/J	.	.	8f\J	.	8f/J	.	8gg\	.	.	.	.	.	.	.	.	.	.	.	.	.	.	.	.	.
8BB-/L	-7 5	.	8f\L	.	8d/L	.	(8aa-\L	.	2D\	-triſ	2d\	-tris	2b-\	-tris	2ff\	-tris	.	.	.	.	2ff\	.	2aa-\	.
8D/	.	.	8f\	.	8f/	.	8ff\)	.	.	.	.	.	.	.	.	.	.	.	.	.	.	.	.	.
8BB-/	.	.	8f\	.	8d/	.	(8ee-\	.	.	.	.	.	.	.	.	.	.	.	.	.	.	.	.	.
8D/J	.	.	8f\J	.	8f/J	.	8dd\J)	.	.	.	.	.	.	.	.	.	.	.	.	.	.	.	.	.
*	*	*	*Xtremolo	*	*	*	*	*	*	*	*	*	*	*	*	*	*	*	*	*	*	*	*	*
!	!	!	!	!	!LO:LB:g=original	!	!LO:LB:g=original	!	!	!	!	!	!	!	!	!	!LO:LB:g=original	!	!	!	!	!	!	!
=65	=65	=65	=65	=65	=65	=65	=65	=65	=65	=65	=65	=65	=65	=65	=65	=65	=65	=65	=65	=65	=65	=65	=65	=65
8E-\L	5 3	.	4e-\	.	8g/L	.	8ee-\L|	.	4E-\	mi-	4B-/	mi-	4b-\	mi-	4ee-\	mi-	4r	.	4r	.	2ee-\	.	2gg\	.
8E-\	.	.	.	.	8g/	.	8b-\|	.	.	.	.	.	.	.	.	.	.	.	.	.	.	.	.	.
!	!	!	!	!	!	!	!	!	!	!	!	!	!	!	!	!	!LO:N:xstem	!	!	!	!	!	!	!
8G\	.	.	4e-\	.	8e-/	.	8b-\|	.	4G\	-ſe-	4G/	-ſe-	4b-\	-ſe-	4ee-\	-ſe-	4e-\	.	4g\	.	.	.	.	.
8G\J	.	.	.	.	8e-/J	.	8b-\J|	.	.	.	.	.	.	.	.	.	.	.	.	.	.	.	.	.
8E-\L	.	.	4e-\	.	8g/L	.	8b-\L|	.	4E-\	-re-	4G/	-re-	4b-\	-re-	4ee-\	-re-	4e-\	.	4g\	.	2b-\	.	2ee-\	.
8E-\	.	.	.	.	8g/	.	8b-\|	.	.	.	.	.	.	.	.	.	.	.	.	.	.	.	.	.
8G\	.	.	4e-\	.	8e-/	.	8b-\|	.	4G\	-re	4G/	-re	4b-\	-re	4ee-\	-re	4e-\	.	4g\	.	.	.	.	.
8G\J	.	.	.	.	8e-/J	.	8b-\J|	.	.	.	.	.	.	.	.	.	.	.	.	.	.	.	.	.
!	!	!	!	!	!	!	!	!	!LO:LB:g=original	!	!	!	!	!	!	!	!	!	!	!	!	!	!	!
=66	=66	=66	=66	=66	=66	=66	=66	=66	=66	=66	=66	=66	=66	=66	=66	=66	=66	=66	=66	=66	=66	=66	=66	=66
*	*	*	*tremolo	*	*	*	*	*	*	*	*	*	*	*	*	*	*	*	*	*	*	*	*	*
8BB-/L	5_ 3_	.	8f\L	.	8d/L	.	4.dd 4.f\	.	2B-\	no-	4B-\	no-	2dd\	no-	2ff\	no-	2B-/	.	2f\	.	2dd\	.	2ff\	.
8D/	.	.	8f\	.	8f/	.	.	.	.	.	.	.	.	.	.	.	.	.	.	.	.	.	.	.
8BB-/	.	.	8f\	.	8d/	.	.	.	.	.	4d\	.	.	.	.	.	.	.	.	.	.	.	.	.
8D/J	.	.	8f\J	.	8f/J	.	8ff\	.	.	.	.	.	.	.	.	.	.	.	.	.	.	.	.	.
*	*	*	*Xtremolo	*	*	*	*	*	*	*	*	*	*	*	*	*	*	*	*	*	*	*	*	*
!LO:LB:g=original	!	!	!	!	!	!	!	!	!	!	!	!	!	!	!	!	!	!	!	!	!	!	!	!
8BB-/L	-7 5	.	8f\L	.	8d/L	.	8aa-\L|	.	4D\	.	4f\	.	2b-\	.	4aa-\	.	4f\	.	4a-\	.	4ff\	.	4aa-\	.
8D/J	.	.	8f\	.	8d/	.	8b-\|	.	.	.	.	.	.	.	.	.	.	.	.	.	.	.	.	.
4E-\	5 3	.	8e-\	.	8e-/	.	8gg\|	.	4E-\	.	4e-\	.	.	.	4gg\	.	4e-\	.	4g\	.	4ee-\	.	4gg\	.
.	.	.	8e-\J	.	8g/J	.	8b-\J|	.	.	.	.	.	.	.	.	.	.	.	.	.	.	.	.	.
=67	=67	=67	=67	=67	=67	=67	=67	=67	=67	=67	=67	=67	=67	=67	=67	=67	=67	=67	=67	=67	=67	=67	=67	=67
4B-\	5 3	.	4B-/	.	4d/	.	4ff\|	.	4BB-/	-bis	4d\	-bis	4b-\	-bis,	4ff\	-bis'	4B-/	.	4f\	.	4dd\	.	4ff\	.
4BB-/	.	.	4B-/	.	4d/	.	4bb-| 4b-\	.	4r	.	4r	.	4r	.	4r	.	4B-/	.	4b-\	.	4dd\	.	4bb-\	.
2r	.	.	2r	.	2r	.	4r	.	2r	.	2r	.	2r	.	2r	.	2r	.	2r	.	2r	.	2r	.
!	!	!	!	!	!	!	!	!LO:DY:a:t=f.	!	!	!	!	!	!	!	!	!	!	!	!	!	!	!	!
.	.	.	.	.	.	.	4B-/	f	.	.	.	.	.	.	.	.	.	.	.	.	.	.	.	.
!	!	!	!	!	!	!	!	!	!	!	!	!	!	!	!LO:LB:g=original	!	!	!	!	!	!	!	!	!
=68	=68	=68	=68	=68	=68	=68	=68	=68	=68	=68	=68	=68	=68	=68	=68	=68	=68	=68	=68	=68	=68	=68	=68	=68
4E-\|	.	.	4E-/	f	4e- 4G/	.	4e- 4G/	.	(4E-\	Quo-	(4e-\	Quo-	(4e-\	Quo-	(4ee-\	Quo-	4E-/	.	4e-\	f	4e-/	.	4ee-\	.
!	!	!	!	!	!	!	!	!	!	!	!	!	!	!	!	!	!	!	!	!	!	!	!LO:N:vis=8	!
8.G\L|	.	.	8.G/L	.	8.g/L	.	8.g/L	.	8.G\L)	.	8.g\L)	.	8.g\L)	.	8.gg\L)	.	8.G/L	f	8.g\L	.	8.g/L	.	8.gg\L	.
16E-\Jk|	.	.	16E-/Jk	.	16e-/Jk	.	16e-/Jk	.	16E-|\Jk	-ni-	16e-\Jk	-ni-	16e-|\Jk	-ni-	16ee-|\Jk	-ni-	16E-/Jk	.	16e-\Jk	.	16e-/Jk	.	16ee-\Jk	.
!	!	!	!	!	!	!	!	!	!	!	!	!	!	!	!	!	!	!	!	!	!	!	!LO:LB:g=original	!
4B-\|	.	.	4B-/	.	4b-/	.	4b-/	.	4B-\	-am	4B-\	-am	4b-\	-am	4b-\	-am	4B-/	.	4b-\	.	4b-/	.	4bb-\	.
4r	.	.	4r	.	8r	.	8r	.	4r	.	4r	.	4r	.	4r	.	4r	.	4r	.	4r	.	4r	.
!	!	!	!	!	!	!	!	!LO:DY:t=p.	!	!	!	!	!	!	!	!	!	!	!	!	!	!	!	!
.	.	.	.	.	8g/	p	8b-\	p	.	.	.	.	.	.	.	.	.	.	.	.	.	.	.	.
!	!	!	!	!	!	!	!	!	!	!	!	!	!LO:LB:g=original	!	!	!	!	!	!	!	!	!	!	!
=69	=69	=69	=69	=69	=69	=69	=69	=69	=69	=69	=69	=69	=69	=69	=69	=69	=69	=69	=69	=69	=69	=69	=69	=69
!	!	!	!LO:TX:a:t=1	!	!	!	!	!	!	!	!LO:TX:a:t=1	!	!	!	!	!	!	!	!LO:TX:a:t=1	!	!	!	!LO:TX:a:t=1	!
1r	.	.	1r	.	8a-/L|	.	8cc\L|	.	1r	.	1r	.	1r	.	1r	.	1r	.	1r	.	1r	.	1r	.
.	.	.	.	.	8g/|	.	8b-\|	.	.	.	.	.	.	.	.	.	.	.	.	.	.	.	.	.
.	.	.	.	.	8a-/|	.	8cc\|	.	.	.	.	.	.	.	.	.	.	.	.	.	.	.	.	.
.	.	.	.	.	8g/J|	.	8b-\J|	.	.	.	.	.	.	.	.	.	.	.	.	.	.	.	.	.
.	.	.	.	.	8a-/L|	.	8cc\L|	.	.	.	.	.	.	.	.	.	.	.	.	.	.	.	.	.
.	.	.	.	.	8g/|	.	8b-\|	.	.	.	.	.	.	.	.	.	.	.	.	.	.	.	.	.
.	.	.	.	.	8a-/|	.	8cc\|	.	.	.	.	.	.	.	.	.	.	.	.	.	.	.	.	.
.	.	.	.	.	8f/J|	.	8dd\J|	.	.	.	.	.	.	.	.	.	.	.	.	.	.	.	.	.
!	!	!	!	!	!	!	!	!	!	!	!LO:LB:g=original	!	!	!	!	!	!	!	!LO:PB:g=original	!	!	!	!	!
=70	=70	=70	=70	=70	=70	=70	=70	=70	=70	=70	=70	=70	=70	=70	=70	=70	=70	=70	=70	=70	=70	=70	=70	=70
!	!	!	!	!	!	!	!	!LO:DY:t=f.	!	!	!	!	!	!	!	!	!	!	!	!	!LO:TX:t=P:problem=takty 70-71 zapisane repetycją	!	!	!
4E-\|	.	.	4E-/	f	4g/	f	4ee-\	f	(4E-\	Quo-	(4e-\	Quo-	(4e-\	Quo-	(4ee-\	Quo-	4E-/	.	4e-\	.	4e-/yy	.	4ee-\	.
!	!	!	!	!	!	!	!	!	!	!	!	!	!	!	!	!	!	!	!	!	!	!	!LO:N:vis=8	!
8.G\L|	.	.	8.G/L	.	8.g/L	.	8.g/L	.	8.G\L)	.	8.g\L)	.	8.g\L)	.	8.gg\L)	.	8.G/L	.	8.g\L	.	8.g/Lyy	.	8.gg\L	.
16E-\Jk|	.	.	16E-/Jk	.	16e-/Jk	.	16e-/Jk	.	16E-|\Jk	-ni-	16e-\Jk	-ni-	16e-|\Jk	-ni-	16ee-|\Jk	-ni-	16E-/Jk	.	16e-\Jk	.	16e-/Jkyy	.	16ee-\Jk	.
4B-\|	.	.	4B-/	.	4b-/	.	4b-\	.	4B-\	-am	4B-\	-am	4b-\	-am	4b-\	-am	4B-/	.	4b-\	.	4b-/yy	.	4bb-\	.
4r	.	.	4r	.	8r	.	8r	.	4r	.	4r	.	4r	.	4r	.	4r	.	4r	.	4ryy	.	4r	.
!	!	!	!	!	!	!	!	!LO:DY:t=p.	!	!	!	!	!	!	!	!	!	!	!	!	!	!	!	!
.	.	.	.	.	8g/	.	8b-\	p	.	.	.	.	.	.	.	.	.	.	.	.	.	.	.	.
!	!	!	!LO:LB:g=original	!	!	!	!	!	!	!	!	!	!	!	!	!	!LO:LB:g=original	!	!	!	!	!	!	!
=71	=71	=71	=71	=71	=71	=71	=71	=71	=71	=71	=71	=71	=71	=71	=71	=71	=71	=71	=71	=71	=71	=71	=71	=71
!	!	!	!	!	!	!	!	!	!LO:TX:b:i:t=Verte Cito	!	!	!	!	!	!	!	!	!	!	!	!	!	!	!
!	!	!	!LO:TX:a:t=1	!	!	!	!	!	!LO:TX:a:t=1	!	!	!	!	!	!	!	!	!	!LO:TX:a:t=1	!	!	!	!LO:TX:a:t=1	!
1r	.	.	1r	.	8a-/L|	p	8cc\L|	.	1r	.	1r	.	1r	.	1r	.	1r	.	1r	.	1ryy	.	1r	.
.	.	.	.	.	8g/|	.	8b-\|	.	.	.	.	.	.	.	.	.	.	.	.	.	.	.	.	.
.	.	.	.	.	8a-/|	.	8cc\|	.	.	.	.	.	.	.	.	.	.	.	.	.	.	.	.	.
.	.	.	.	.	8g/J|	.	8b-\J|	.	.	.	.	.	.	.	.	.	.	.	.	.	.	.	.	.
!	!	!	!	!	!LO:LB:g=original	!	!	!	!	!	!	!	!	!	!	!	!	!	!	!	!	!	!	!
.	.	.	.	.	8a-/L|	.	8cc\L|	.	.	.	.	.	.	.	.	.	.	.	.	.	.	.	.	.
.	.	.	.	.	8g/|	.	8b-\|	.	.	.	.	.	.	.	.	.	.	.	.	.	.	.	.	.
.	.	.	.	.	8a-/|	.	8cc\|	.	.	.	.	.	.	.	.	.	.	.	.	.	.	.	.	.
.	.	.	.	.	8f/J|	.	8dd\J|	.	.	.	.	.	.	.	.	.	.	.	.	.	.	.	.	.
!	!	!	!	!	!	!	!	!	!LO:PB:g=original	!	!	!	!	!	!	!	!	!	!	!	!LO:LB:g=original	!	!	!
=72	=72	=72	=72	=72	=72	=72	=72	=72	=72	=72	=72	=72	=72	=72	=72	=72	=72	=72	=72	=72	=72	=72	=72	=72
*	*	*	*	*	*tremolo	*	*	*	*	*	*	*	*	*	*	*	*	*	*	*	*	*	*	*
2E-\	5_ 3_	.	2B-/	.	8B-/L	.	4ee-\	.	4E-\	Quo-	4e-\	Quo-	4b-\	Quo-	4ee-\	Quo-	2G/	.	2e-\	.	2b-\	.	2ee-\	.
.	.	.	.	.	8B-/	.	.	.	.	.	.	.	.	.	.	.	.	.	.	.	.	.	.	.
.	.	.	.	.	8B-/	.	8.gg\L	.	4E-\	-ni-	4e-\	-ni-	4b-\	-ni-	8.gg\L	.	.	.	.	.	.	.	.	.
.	.	.	.	.	8B-/J	.	.	.	.	.	.	.	.	.	.	.	.	.	.	.	.	.	.	.
.	.	.	.	.	.	.	16ee-\Jk	.	.	.	.	.	.	.	16ee-\Jk	-ni-	.	.	.	.	.	.	.	.
!	!	!	!	!	!	!	!LO:LB:g=original	!	!	!	!	!	!	!	!	!	!	!	!	!	!	!	!	!
4G\	.	.	2b-\	.	8e-/L	.	4.bb-\	.	4.E-\	-am	4.e-\	-am	4.b-\	-am	4.gg\	-am	2e-/	.	2g\	.	2ee-\	.	2gg\	.
.	.	.	.	.	8e-/	.	.	.	.	.	.	.	.	.	.	.	.	.	.	.	.	.	.	.
4E-\	.	.	.	.	8e-/	.	.	.	.	.	.	.	.	.	.	.	.	.	.	.	.	.	.	.
.	.	.	.	.	8e-/J	.	8gg\	.	8E-\	tu	8e-\	tu	8b-\	tu	8gg\	tu	.	.	.	.	.	.	.	.
*	*	*	*	*	*Xtremolo	*	*	*	*	*	*	*	*	*	*	*	*	*	*	*	*	*	*	*
=73	=73	=73	=73	=73	=73	=73	=73	=73	=73	=73	=73	=73	=73	=73	=73	=73	=73	=73	=73	=73	=73	=73	=73	=73
2BB-/	5_ 3_	.	2f\	.	4B-/	.	2ff\	.	2D/	ſo-	2d\	so-	2b-\	ſo-	2ff\	ſo-	1B-	.	1f	.	2dd\	.	2ff\	.
.	.	.	.	.	8.d/L	.	.	.	.	.	.	.	.	.	.	.	.	.	.	.	.	.	.	.
.	.	.	.	.	16B-/Jk	.	.	.	.	.	.	.	.	.	.	.	.	.	.	.	.	.	.	.
8D/L	.	.	2f\	.	4.f/	.	2bb-\	.	8D/L	-l(us)	2d\	-l(us)	2b-\	-lus	2ff\	-lus	.	.	.	.	2dd\	.	2bb-\	.
8BB-/	.	.	.	.	.	.	.	.	8BB-/	.	.	.	.	.	.	.	.	.	.	.	.	.	.	.
8D/	.	.	.	.	.	.	.	.	8D/	.	.	.	.	.	.	.	.	.	.	.	.	.	.	.
8F/J	.	.	.	.	8d/	.	.	.	8F/J	.	.	.	.	.	.	.	.	.	.	.	.	.	.	.
=74	=74	=74	=74	=74	=74	=74	=74	=74	=74	=74	=74	=74	=74	=74	=74	=74	=74	=74	=74	=74	=74	=74	=74	=74
!	!	!	!	!	!	!	!	!	!	!	!	!	!	!	!	!	!	!	!LO:TX:a:t=2	!	!	!	!	!
8G\L	6	.	4g\	.	4e-/	.	8ee-\L|	.	8G\L	tu	4e-\	ſan-	4g\	tu	4ee-\	tu	0r	.	0r	.	(4dd\	.	4ee-\	.
8E-\J	.	.	.	.	.	.	(16ff\L	.	8E-\J	.	.	.	.	.	.	.	.	.	.	.	.	.	.	.
.	.	.	.	.	.	.	16ee-\JJ)	.	.	.	.	.	.	.	.	.	.	.	.	.	.	.	.	.
4e-\	6	.	2cc\	.	8r	.	4ccc\	.	8e-\	so-	8e-\	-ct(us)	8cc\	ſo-	8gg\	ſo-	.	.	.	.	4cc\)	.	4gg\	.
.	.	.	.	.	8g/	.	.	.	8e-\	-lus	8e-\	tu	8cc\	-lus	8gg\	-lus	.	.	.	.	.	.	.	.
8d\L	7	.	.	.	8r	.	8ccc\L	.	8d\L	ſan-	4e-\	ſo-	4cc\	ſan-	4ff\	ſan-	.	.	.	.	(4cc\	.	2ff\	.
8c\	.	.	.	.	8f/L|	.	(16ddd\L	.	8c\J	.	.	.	.	.	.	.	.	.	.	.	.	.	.	.
.	.	.	.	.	.	.	16ccc\JJ)	.	.	.	.	.	.	.	.	.	.	.	.	.	.	.	.	.
8d\	6	.	4b-\	.	(8f/	.	[4bb-\	.	8d\L	-ct(us)	4f\	-l(us)	4b-\	-ct(us)	4ff\	-ct(us)	.	.	.	.	4b-\)	.	.	.
8B-\J	.	.	.	.	8b-/J)	.	.	.	8B-\J	.	.	.	.	.	.	.	.	.	.	.	.	.	.	.
=75	=75	=75	=75	=75	=75	=75	=75	=75	=75	=75	=75	=75	=75	=75	=75	=75	=75	=75	=75	=75	=75	=75	=75	=75
4.c\	7	.	4b-\	.	8r	.	8bb-\L]	.	4c\	tu	4d\	tu	4b-\	tu	4ee-\	tu	.	.	.	.	(4b-/	.	2ee-\	.
.	.	.	.	.	8e-/L|	.	8ee-\J|	.	.	.	.	.	.	.	.	.	.	.	.	.	.	.	.	.
.	6	.	2a-\	.	(8e-/	.	[4aa-\	.	8c\	ſo-	8e-\	ſo-	8a-\	ſo-	8ee-\	ſo-	.	.	.	.	4a-X/)	.	.	.
8A-\	.	.	.	.	8a-/J)	.	.	.	8A-\	-l(us)	8e-\	-l(us)	8a-\	-l(us)	8ee-\	-lus	.	.	.	.	.	.	.	.
!LO:LB:g=original	!	!	!	!	!	!	!	!	!	!	!	!	!	!	!LO:LB:g=original	!	!	!	!	!	!	!	!	!
8B-\L	7	.	.	.	8r	.	8aa-\L]	.	8B-\	Do-	8c\	D(o-	8a-\	D(o-	8dd\	Do-	.	.	.	.	(4a-/	.	2dd\	.
8A-\	.	.	.	.	8d/L|	.	(16bb-\L	.	8A-\	-mi-	8c\	-mi)-	8a-\	-mi)-	8dd\	-mi-	.	.	.	.	.	.	.	.
.	.	.	.	.	.	.	16aa-\JJ)	.	.	.	.	.	.	.	.	.	.	.	.	.	.	.	.	.
8B-\	6	.	4g\	.	(8d/	.	[4gg\	.	8B-\L	-nus	4d\	-nus	4g\	-nus	4dd\	-nus	.	.	.	.	4g/)	.	.	.
8G\J	.	.	.	.	8g/J)	.	.	.	8G\J	.	.	.	.	.	.	.	.	.	.	.	.	.	.	.
!	!	!	!	!	!	!	!	!	!	!	!	!	!LO:LB:g=original	!	!	!	!	!	!	!	!	!	!	!
=76	=76	=76	=76	=76	=76	=76	=76	=76	=76	=76	=76	=76	=76	=76	=76	=76	=76	=76	=76	=76	=76	=76	=76	=76
4.A-\	7	.	4g\	.	8r	.	8gg\L]	.	4.A-\	tu	4B-\	tu	4g\	tu	2cc\	tu	2r	.	2r	.	(4g/	.	2cc\	.
.	.	.	.	.	8c/L	.	8cc\J|	.	.	.	.	.	.	.	.	.	.	.	.	.	.	.	.	.
.	6	.	2f\	.	(8c/	.	4ff\	.	.	.	4c\	ſo-	4f\	ſo-	.	.	.	.	.	.	4f/)	.	.	.
8F\	.	.	.	.	8f/J)	.	.	.	8F\	ſo-	.	.	.	.	.	.	.	.	.	.	.	.	.	.
8G\L	7	.	.	.	8r	.	8ff\L|	.	8G\L	-lus	4A-X\	-lus	4f\	-lus	4b-\	ſo-	4r	.	4r	.	(4f/	.	4b-\	.
8F\	.	.	.	.	8B-/	.	(16gg\L	.	8F\J	.	.	.	.	.	.	.	.	.	.	.	.	.	.	.
.	.	.	.	.	.	.	16ff\JJ)	.	.	.	.	.	.	.	.	.	.	.	.	.	.	.	.	.
8G\	6	.	4g\	.	4g/	.	[4ee-\	.	8G\L	Al-	4B-\	Al-	4f\	Al-	4ee-\	-lus	4e-\	.	4g\	.	4g/)	.	4ee-\	.
8E-\J	.	.	.	.	.	.	.	.	8E-\J	.	.	.	.	.	.	.	.	.	.	.	.	.	.	.
!	!	!	!	!	!	!	!	!	!LO:LB:g=original	!	!	!	!	!	!	!	!	!	!	!	!	!	!	!
=77	=77	=77	=77	=77	=77	=77	=77	=77	=77	=77	=77	=77	=77	=77	=77	=77	=77	=77	=77	=77	=77	=77	=77	=77
*tremolo	*	*	*tremolo	*	*tremolo	*	*	*	*	*	*	*	*	*	*	*	*	*	*	*	*	*	*	*
8B-\L	6 4	.	8b-\L	.	8g/L	.	8ee-\L]	.	4B-\	-tiſ-	4G/	-tiſ-	4g\	-tiſ-	4ee-\	Al-	2e-\	.	2g\	.	2ee-\	.	2gg\	.
8B-\	.	.	8b-\	.	8g/	.	8b-\J	.	.	.	.	.	.	.	.	.	.	.	.	.	.	.	.	.
8B-\	.	.	8b-\	.	8g/	.	4ee-\	.	4B-\	-si-	4G/	-si-	4g\	-si-	4ee-\	-tiſ-	.	.	.	.	.	.	.	.
8B-\J	.	.	8b-\J	.	8g/J	.	.	.	.	.	.	.	.	.	.	.	.	.	.	.	.	.	.	.
8BB-/L	5 3	.	8B-/L	.	8f/L	.	8dd\L|	.	4BB-/	-mus	4A-/	-mus	4f\	-mus	4dd\	-si-	2B-/	.	2f\	.	2dd\	.	2ff\	.
8BB-/	.	.	8B-/	.	8f/	.	8ff\|	.	.	.	.	.	.	.	.	.	.	.	.	.	.	.	.	.
8BB-/	.	.	8B-/	.	8f/	.	8b-\|	.	4BB-/	Je-	4A-/	Je-	(4f\	Je-	4dd\	-mus	.	.	.	.	.	.	.	.
8BB-/J	.	.	8B-/J	.	8f/J	.	8dd\J|	.	.	.	.	.	.	.	.	.	.	.	.	.	.	.	.	.
*Xtremolo	*	*	*Xtremolo	*	*Xtremolo	*	*	*	*	*	*	*	*	*	*	*	*	*	*	*	*	*	*	*
!	!	!	!	!	!LO:LB:g=original	!	!	!	!	!	!	!	!	!	!	!	!	!	!	!	!	!	!LO:LB:g=original	!
=78	=78	=78	=78	=78	=78	=78	=78	=78	=78	=78	=78	=78	=78	=78	=78	=78	=78	=78	=78	=78	=78	=78	=78	=78
!	!	!	!	!	!	!	!	!LO:DY:t=ffor.	!	!	!	!	!	!	!	!	!	!	!	!	!	!	!	!
4E-\	.	.	4e-\	.	4e-/	.	8ee-\L|	ff	4E-\	.	2e-\	.	2b-\)	.	2gg\	Je-	2e-/	.	2g\	.	2ee-\	.	2gg\	.
.	.	.	.	.	.	.	(16gg\L	.	.	.	.	.	.	.	.	.	.	.	.	.	.	.	.	.
.	.	.	.	.	.	.	16ee-\JJ)	.	.	.	.	.	.	.	.	.	.	.	.	.	.	.	.	.
!	!	!	!	!	!LO:TX:t=P:problem=mixed beam	!	!	!	!	!	!	!	!	!	!	!	!	!	!	!	!	!	!	!
8G\L	.	.	4g\	.	(8e-/L	.	8bb-\L|	.	4G\	-su	.	.	.	.	.	.	.	.	.	.	.	.	.	.
8G\J	.	.	.	.	8ee-\J)	.	8bb-\J|	.	.	.	.	.	.	.	.	.	.	.	.	.	.	.	.	.
!	!	!	!	!	!	!	!LO:TX:t=P:problem=mixed beam	!	!	!	!	!	!	!	!	!	!	!	!	!	!	!	!	!
8B-\L	.	.	8b-\L	.	4ee-\	.	(8bb-\L	.	4B-\	Chri-	4e-\	-su	2b-\	-su	2ff\	-su	2B-/	.	2f\	.	2dd\	.	2ff\	.
16B-\L	.	.	16b-\L	.	.	.	8b-/)	.	.	.	.	.	.	.	.	.	.	.	.	.	.	.	.	.
16c\JJ	.	.	16cc\JJ	.	.	.	.	.	.	.	.	.	.	.	.	.	.	.	.	.	.	.	.	.
!	!	!	!	!	!	!	!	!	!	!	!LO:TX:b:i:t=V.S.	!	!	!	!	!	!	!	!	!	!	!	!	!
8d\L	6	.	8dd\L	.	4dd\	.	8bb-\|	.	4BB-/	.	4d\	.	.	.	.	.	.	.	.	.	.	.	.	.
8B-\J	.	.	8b-\J	.	.	.	8bb-\J|	.	.	.	.	.	.	.	.	.	.	.	.	.	.	.	.	.
!	!	!	!LO:LB:g=original	!	!	!	!LO:LB:g=original	!	!	!	!LO:PB:g=original	!	!	!	!	!	!	!	!	!	!	!	!	!
=79	=79	=79	=79	=79	=79	=79	=79	=79	=79	=79	=79	=79	=79	=79	=79	=79	=79	=79	=79	=79	=79	=79	=79	=79
4c\	3	.	4cc\	.	4cc\	.	8gg\L	.	4C/	-ste	[2c\	Chriſ-	2g\	Chriſ-	2ee-\	Chriſ-	2E-/	.	2e-\	.	2cc\	.	2ee-\	.
.	.	.	.	.	.	.	(16cc\L	.	.	.	.	.	.	.	.	.	.	.	.	.	.	.	.	.
.	.	.	.	.	.	.	16ee-\JJ)	.	.	.	.	.	.	.	.	.	.	.	.	.	.	.	.	.
!	!	!	!	!	!LO:TX:t=P:problem=mixed beam	!	!	!	!	!	!	!	!	!	!	!	!	!	!	!	!	!	!	!
8E-\L	.	.	4e-\	.	(8c/L	.	8gg\L|	.	4E-\	Je-	.	.	.	.	.	.	.	.	.	.	.	.	.	.
8E-\J	.	.	.	.	8cc\J)	.	8gg\J|	.	.	.	.	.	.	.	.	.	.	.	.	.	.	.	.	.
!	!	!	!	!	!	!	!LO:TX:t=P:problem=mixed beam	!	!	!	!	!	!	!	!	!	!	!	!	!	!	!	!	!
!	!	!	!	!	!	!	!	!	!	!	!	!	!	!	!	!	!LO:SIC:v:s=2G/	!	!	!	!	!	!	!
8G\L	5 4	.	4g\	.	4cc\	.	8gg\L|	.	4G\	.	4c\]	.	2g\	-te	2dd\	-te	2A-/	.	2g\	.	2b-\	.	2dd\	.
16G\L	.	.	.	.	.	.	8g/|	.	.	.	.	.	.	.	.	.	.	.	.	.	.	.	.	.
16A-\JJ	.	.	.	.	.	.	.	.	.	.	.	.	.	.	.	.	.	.	.	.	.	.	.	.
8B-\L	6	.	4G/	.	4b-\	.	8gg\|	.	4GG/	.	4B-\	-te	.	.	.	.	.	.	.	.	.	.	.	.
8G\J	.	.	.	.	.	.	8gg\J|	.	.	.	.	.	.	.	.	.	.	.	.	.	.	.	.	.
=80	=80	=80	=80	=80	=80	=80	=80	=80	=80	=80	=80	=80	=80	=80	=80	=80	=80	=80	=80	=80	=80	=80	=80	=80
4A-\	.	.	4A-/	.	4a-/	.	8ee-\L	.	4AA-/	.	4A-/	Je-	4e-\	Je-	4cc\	Je-	2E-/	.	2e-\	.	2a-\	.	2cc\	.
.	.	.	.	.	.	.	(16a-\L	.	.	.	.	.	.	.	.	.	.	.	.	.	.	.	.	.
.	.	.	.	.	.	.	16cc\JJ)	.	.	.	.	.	.	.	.	.	.	.	.	.	.	.	.	.
4c\	6	.	4c/	.	(8A-/L	.	8ee-\L|	.	4C/	-su	4A-/	-su	4e-\	-su	4cc\	-su	.	.	.	.	.	.	.	.
.	.	.	.	.	8a-/J)	.	8ee-\J|	.	.	.	.	.	.	.	.	.	.	.	.	.	.	.	.	.
!	!	!	!	!	!	!	!LO:TX:t=P:problem=mixed beam	!	!	!	!	!	!	!	!	!	!	!	!	!	!	!	!	!
8E-\L	5 4	.	4e-/	.	4a-/|	.	8ee-\L	.	4E-\	Chriſ-	4G/	Chriſ-	4e-\	Chriſ-	4b-\	Chriſ-	2E-/	.	2e-\	.	2ee-\	.	2gg\	.
16E-\L	.	.	.	.	.	.	8e-/	.	.	.	.	.	.	.	.	.	.	.	.	.	.	.	.	.
16F\JJ	.	.	.	.	.	.	.	.	.	.	.	.	.	.	.	.	.	.	.	.	.	.	.	.
8G\L	6	.	4E-/	.	4g/|	.	8ee-\	.	4G\	-te,	4G/	-te	4e-\	-te	4b-\	-te	.	.	.	.	.	.	.	.
8E-\J	.	.	.	.	.	.	8ee-\J	.	.	.	.	.	.	.	.	.	.	.	.	.	.	.	.	.
!	!	!	!	!	!	!	!	!	!	!	!	!	!	!	!	!	!LO:LB:g=original	!	!LO:LB:g=original	!	!	!	!	!
=81	=81	=81	=81	=81	=81	=81	=81	=81	=81	=81	=81	=81	=81	=81	=81	=81	=81	=81	=81	=81	=81	=81	=81	=81
*tremolo	*	*	*	*	*tremolo	*	*	*	*	*	*	*	*	*	*	*	*	*	*	*	*	*	*	*
!	!	!	!	!	!	!	!	!	!LO:TX:a:t=5	!	!LO:TX:a:t=5	!	!LO:TX:a:t=5	!	!	!	!	!	!	!	!	!	!	!
8B-\L	6 4	.	2B-/	.	8g/L	.	8b-\L	.	00r	.	00r	.	00r	.	00r	.	2e-/	.	2g\	.	2ee-\	.	2gg\	.
8B-\	.	.	.	.	8g/	.	8bb-\	.	.	.	.	.	.	.	.	.	.	.	.	.	.	.	.	.
8B-\	.	.	.	.	8g/	.	8gg\	.	.	.	.	.	.	.	.	.	.	.	.	.	.	.	.	.
8B-\J	.	.	.	.	8g/J	.	8ee-\J	.	.	.	.	.	.	.	.	.	.	.	.	.	.	.	.	.
8BB-/L	4	.	4B-/	.	8f/L	.	4b-\	.	.	.	.	.	.	.	.	.	2B-/	.	2f\	.	4dd\	.	4ff\	.
8BB-/	.	.	.	.	8f/	.	.	.	.	.	.	.	.	.	.	.	.	.	.	.	.	.	.	.
8BB-/	3	.	4B-/	.	8f/	.	4dd 4f 4B-/	.	.	.	.	.	.	.	.	.	.	.	.	.	4b-\	.	4dd\	.
8BB-/J	.	.	.	.	8f/J	.	.	.	.	.	.	.	.	.	.	.	.	.	.	.	.	.	.	.
*Xtremolo	*	*	*	*	*Xtremolo	*	*	*	*	*	*	*	*	*	*	*	*	*	*	*	*	*	*	*
!LO:LB:g=original	!	!	!	!	!	!	!	!	!	!	!	!	!	!	!	!	!	!	!	!	!LO:LB:g=original	!	!	!
=82	=82	=82	=82	=82	=82	=82	=82	=82	=82	=82	=82	=82	=82	=82	=82	=82	=82	=82	=82	=82	=82	=82	=82	=82
!	!	!	!	!	!	!	!	!	!	!	!	!	!	!	!	!	!	!	!	!	!LO:TX:a:i:t=Solo	!	!LO:TX:a:i:t=Solo	!LO:DY:t=p.
4E-\	.	.	4B-/	.	4g 4B-/	.	4ee- 4g 4B-/	.	.	.	.	.	.	.	.	.	4G/	.	4e-\	.	4b-\	.	4ee-\	p
4r	.	.	4r	.	4r	.	4r	.	.	.	.	.	.	.	.	.	4r	.	4r	.	4ee-\	p	4gg\	.
!	!	!	!	!LO:DY:t=p&colon;	!	!	!	!LO:DY:t=p.	!	!	!	!	!	!	!	!	!	!	!	!	!	!	!	!
2r	.	.	2B-/	p	2e-/	p	2g/	p	.	.	.	.	.	.	.	.	2r	.	2r	.	4ee-\	.	4gg\	.
.	.	.	.	.	.	.	.	.	.	.	.	.	.	.	.	.	.	.	.	.	4ee-\	.	4gg\	.
=83	=83	=83	=83	=83	=83	=83	=83	=83	=83	=83	=83	=83	=83	=83	=83	=83	=83	=83	=83	=83	=83	=83	=83	=83
!LO:TX:b:i:t=pedale	!	!	!	!	!	!	!	!	!	!	!	!	!	!	!	!	!	!	!	!	!	!	!	!
!LO:TX:a:i:t=Solo	!	!	!	!	!	!	!	!	!	!	!	!	!	!	!	!	!	!	!	!	!	!	!	!
1E-	.	.	2B-/	.	(4g/	.	(4b-/	.	.	.	.	.	.	.	.	.	2r	.	2r	.	4gg\	.	4bb-\	.
.	.	.	.	.	4f/)	.	4a-/)	.	.	.	.	.	.	.	.	.	.	.	.	.	4ff\	.	4aa-\	.
.	.	.	4r	.	4r	p	4r	.	.	.	.	.	.	.	.	.	4r	.	4r	.	4ff\	.	4aa-\	.
!	!	!	!	!LO:DY:t=f&colon;	!	!	!	!LO:DY:t=f.:rj	!	!	!	!	!	!	!	!	!	!	!	!	!	!	!	!
.	.	.	4B-/	f	4ee- 4g 4B-/	.	4gg 4b- 4e-/	f	.	.	.	.	.	.	.	.	4e-\	.	4g\	.	4r	.	4r	.
=84	=84	=84	=84	=84	=84	=84	=84	=84	=84	=84	=84	=84	=84	=84	=84	=84	=84	=84	=84	=84	=84	=84	=84	=84
4BB-/	.	.	2B-/	.	4dd 4f 4B-/	.	4ff 4b- 4d/	.	.	.	.	.	.	.	.	.	4B-/	.	4f\	.	4r	.	4r	.
4r	.	.	.	.	4r	.	4r	.	.	.	.	.	.	.	.	.	4r	.	4r	.	4dd\	.	4ff\	.
*	*	*	*	*	*tremolo	*	*	*	*	*	*	*	*	*	*	*	*	*	*	*	*	*	*	*
!	!	!	!LO:SIC:v:s=2B-/	!LO:DY:t=p.	!	!	!	!LO:DY:t=p.	!	!	!	!	!	!	!	!	!	!	!	!	!	!	!	!
2r	.	.	2c/	p	8B-/L	p	2f/	p	.	.	.	.	.	.	.	.	2r	.	2r	.	4dd\	.	4ff\	.
.	.	.	.	.	8B-/	.	.	.	.	.	.	.	.	.	.	.	.	.	.	.	.	.	.	.
.	.	.	.	.	8B-/	.	.	.	.	.	.	.	.	.	.	.	.	.	.	.	4dd\	.	4ff\	.
.	.	.	.	.	8B-/J	.	.	.	.	.	.	.	.	.	.	.	.	.	.	.	.	.	.	.
*	*	*	*	*	*Xtremolo	*	*	*	*	*	*	*	*	*	*	*	*	*	*	*	*	*	*	*
=85	=85	=85	=85	=85	=85	=85	=85	=85	=85	=85	=85	=85	=85	=85	=85	=85	=85	=85	=85	=85	=85	=85	=85	=85
1BB-	.	.	2B-/	.	(4f/	.	(4a-/	.	1r	.	1r	.	1r	.	1r	.	2r	.	2r	.	(4ff\	.	4aa-\	.
.	.	.	.	.	4e-/)	.	4g/)	.	.	.	.	.	.	.	.	.	.	.	.	.	4ee-\)	.	4gg\	.
!	!	!	!	!	!LO:LB:g=original	!	!	!	!	!	!	!	!	!	!	!	!	!	!	!	!	!	!	!
.	.	.	4r	.	4r	.	4r	.	.	.	.	.	.	.	.	.	4r	.	4r	.	4ee-|\	.	4gg\	.
!	!	!	!	!LO:DY:t=fp&colon;	!	!LO:DY:rj	!	!LO:DY:t=f.:rj	!	!	!	!	!	!	!	!	!	!	!	!	!	!	!	!
.	.	.	4B-/	fp	4a- 4B-/	p	4ff 4b- 4d/	f	.	.	.	.	.	.	.	.	4B-/	f	4f\	.	4r	.	4r	.
!	!	!	!LO:LB:g=original	!	!	!	!	!	!	!	!	!	!	!	!	!	!	!	!	!	!	!	!	!
=86	=86	=86	=86	=86	=86	=86	=86	=86	=86	=86	=86	=86	=86	=86	=86	=86	=86	=86	=86	=86	=86	=86	=86	=86
!LO:TX:a:i:t=Tutti	!	!	!	!	!	!	!	!	!	!	!	!	!	!	!	!	!	!	!	!	!	!	!	!
8E-\L	5_ 3_	.	8B-/	p	8g/	.	8ee-\	.	2E-\	Cum	2G/	Cum	2b-\	Cum	2ee-\	Cum	1G	.	1e-	f	1b-	f	1ee-	f
8G\	.	.	4B-/	.	4g/	.	4ee-\	.	.	.	.	.	.	.	.	.	.	.	.	.	.	.	.	.
8B-\	.	.	.	.	.	.	.	.	.	.	.	.	.	.	.	.	.	.	.	.	.	.	.	.
8G\J	.	.	4B-/	f	4g/	.	4ee-\	.	.	.	.	.	.	.	.	.	.	.	.	.	.	.	.	.
8E-\L	.	.	.	.	.	.	.	.	4G\	ſan-	4G/	ſ(an)-	4b-\	ſan-	4ee-\	ſan-	.	.	.	.	.	.	.	.
8G\	.	.	4B-/	.	4g/	.	4ee-\	.	.	.	.	.	.	.	.	.	.	.	.	.	.	.	.	.
8B-\	.	.	.	.	.	.	.	.	4G\	-cto	4G/	-cto	4b-\	-cto	4ee-\	-cto	.	.	.	.	.	.	.	.
8G\J	.	.	8B-/	.	(8g/	.	8ee-\	.	.	.	.	.	.	.	.	.	.	.	.	.	.	.	.	.
!	!	!	!	!	!	!	!LO:LB:g=original	!	!	!	!	!	!LO:LB:g=original	!	!	!	!	!	!	!	!	!	!LO:LB:g=original	!
=87	=87	=87	=87	=87	=87	=87	=87	=87	=87	=87	=87	=87	=87	=87	=87	=87	=87	=87	=87	=87	=87	=87	=87	=87
8B-\L	.	.	8f\	.	8f/)	.	8dd\L|	.	4B-\	ſpi-	4F/	ſpi-	4b-\	ſpi-	4dd\	ſpi-	4r	.	4r	.	(4b-\	.	4dd\	.
8B-\	.	.	4f\	.	4f/	.	8b-\|	.	.	.	.	.	.	.	.	.	.	.	.	.	.	.	.	.
8d\	.	.	.	.	.	.	8ff\|	.	4B-\	-ri-	4F/	-ri-	4dd\	-ri-	4ff\	-ri-	4B-/	.	4f\	.	4dd\)	.	4ff\	.
8d\J	.	.	4f\	.	4f/	.	8b-\J|	.	.	.	.	.	.	.	.	.	.	.	.	.	.	.	.	.
8B-\L	.	.	.	.	.	.	8aa-\L|	.	4B-\	-tu	4F/	-tu	4dd\	-tu	4ff\	-tu	4B-/	.	4f\	.	4b-\	.	4dd\	.
!	!	!	!	!	!LO:SIC:v:s=4f/	!	!	!	!	!	!	!	!	!	!	!	!	!	!	!	!	!	!	!
8B-\	.	.	4f\	.	4g/	.	8b-\|	.	.	.	.	.	.	.	.	.	.	.	.	.	.	.	.	.
8d\	.	.	.	.	.	.	8ff\|	.	4BB-/	in	4F/	in	4b-\	in	4dd\	in	4B-/	.	4f\	.	4dd\	.	4ff\	.
8d\J	.	.	8f\	.	8f/	.	8b-\J|	.	.	.	.	.	.	.	.	.	.	.	.	.	.	.	.	.
!	!	!	!	!	!	!	!	!	!	!	!	!	!	!	!LO:LB:g=original	!	!	!	!	!	!	!	!	!
=88	=88	=88	=88	=88	=88	=88	=88	=88	=88	=88	=88	=88	=88	=88	=88	=88	=88	=88	=88	=88	=88	=88	=88	=88
8e-\L	5 3	.	8B-/	.	8g/	.	8ee-\	.	2E-\	glo-	2G/	glo-	2b-\	glo-	2ee-\	glo-	1G	.	1e-	f	1b-	.	1ee-	.
8G\	.	.	4B-/	.	4g/	.	4ee-\	.	.	.	.	.	.	.	.	.	.	.	.	.	.	.	.	.
8B-\	.	.	.	.	.	.	.	.	.	.	.	.	.	.	.	.	.	.	.	.	.	.	.	.
8G\J	.	.	4B-/	.	4g/	.	4ee-\	.	.	.	.	.	.	.	.	.	.	.	.	.	.	.	.	.
8E-\L	.	.	.	.	.	.	.	.	4G\	-ri-	4G/	-ri-	4b-\	-ri-	4ee-\	-ri-	.	.	.	.	.	.	.	.
!	!	!	!LO:N:vis=8	!	!	!	!	!	!	!	!	!	!	!	!	!	!	!	!	!	!	!	!	!
8G\	.	.	4.B-/	.	4g/	.	4ee-\	.	.	.	.	.	.	.	.	.	.	.	.	.	.	.	.	.
8B-\	.	.	.	.	.	.	.	.	4G\	-a	4G/	-a	4b-\	-a	4ee-\	-a	.	.	.	.	.	.	.	.
8G\J	.	.	.	.	(8g/	.	8ee-\	.	.	.	.	.	.	.	.	.	.	.	.	.	.	.	.	.
!	!	!	!	!	!	!	!	!	!LO:LB:g=original	!	!	!	!	!	!	!	!LO:LB:g=original	!	!	!	!	!	!	!
=89	=89	=89	=89	=89	=89	=89	=89	=89	=89	=89	=89	=89	=89	=89	=89	=89	=89	=89	=89	=89	=89	=89	=89	=89
8B-\L	5_ 3_	.	8f\	.	8f/)	.	8dd\L|	.	4B-\	De-	4F/	De-	4b-\	De-	4dd\	De-	4r	.	4r	.	4b-\	.	4dd\	.
8B-\	.	.	4f\	.	4f/	.	8b-\|	.	.	.	.	.	.	.	.	.	.	.	.	.	.	.	.	.
8d\	.	.	.	.	.	.	8ff\|	.	4B-\	-i	4F/	-i	4b-\	-i	4ff\	-i	4B-/	.	4f\	.	4dd\	.	4ff\	.
8d\J	.	.	4f\	.	4f/	.	8b-\J|	.	.	.	.	.	.	.	.	.	.	.	.	.	.	.	.	.
8B-\L	.	.	.	.	.	.	8aa-\L|	.	2B-\	Pa-	2F/	Pa-	2dd\	Pa-	2ff\	Pa-	4B-/	.	4f\	.	4b-\	.	4dd\	.
8B-\	.	.	4f\	.	4f/	.	8b-\|	.	.	.	.	.	.	.	.	.	.	.	.	.	.	.	.	.
8d\	.	.	.	.	.	.	8ff\|	.	.	.	.	.	.	.	.	.	4B-/	.	4f\	.	4dd\	.	4ff\	.
8d\J	.	.	8f\	.	8f/	.	8b-\J|	.	.	.	.	.	.	.	.	.	.	.	.	.	.	.	.	.
!	!	!	!	!	!	!	!	!	!	!	!LO:LB:g=original	!	!	!	!	!	!	!	!LO:LB:g=original	!	!	!	!	!
=90	=90	=90	=90	=90	=90	=90	=90	=90	=90	=90	=90	=90	=90	=90	=90	=90	=90	=90	=90	=90	=90	=90	=90	=90
4e-\	x	.	8B-\L	.	(>8g/L|	.	8ee-\L|	.	4E-\	-tris	4G/	-tris	4b-\	-tris	4ee-\	-tris	4G/	.	4e-\	.	4b-\	.	4ee-\	.
.	.	.	8B-\	.	8B-/|	.	(16g\L	.	.	.	.	.	.	.	.	.	.	.	.	.	.	.	.	.
.	.	.	.	.	.	.	16b-\JJ)	.	.	.	.	.	.	.	.	.	.	.	.	.	.	.	.	.
8G\L	6_	.	8e-\	.	8g/|	.	8ee-\L|	.	4r	.	4r	.	4r	.	4r	.	4r	.	4r	.	4r	.	4r	.
8E-\J	.	.	8e-\J	.	8B-/J|	.	8gg\J	.	.	.	.	.	.	.	.	.	.	.	.	.	.	.	.	.
!LO:LB:g=original	!	!	!	!	!	!	!	!	!	!	!	!	!	!	!	!	!	!	!	!	!	!	!	!
4B-\	6 4	.	8e-\L	.	8g/L|	.	8bb-\L|	.	4B-\	A-	4e-\	A-	4ee-\	A-	4gg\	A-	4e-/	.	4g\	.	4gg\	.	4bb-\	.
.	.	.	8e-\	.	8B-/|	.	8b-\|	.	.	.	.	.	.	.	.	.	.	.	.	.	.	.	.	.
4BB-/	5 3	.	8d\	.	8f/|	.	(8bb-\	.	4BB-/	.	4f\	.	4dd\	.	4ff\	.	4B-/	.	4f\	.	4ff\	.	4aa-\	.
.	.	.	8d\J	.	8d/J)|	.	8aa-\J)	.	.	.	.	.	.	.	.	.	.	.	.	.	.	.	.	.
=91	=91	=91	=91	=91	=91	=91	=91	=91	=91	=91	=91	=91	=91	=91	=91	=91	=91	=91	=91	=91	=91	=91	=91	=91
!	!	!	!	!	!LO:TX:t=P:problem=takt 90 zapisany repetycją	!	!	!	!	!	!	!	!	!	!	!	!	!	!	!	!	!	!	!
4E-\	5 3	.	8B-/L	.	(y>8g/Lyy|	.	8gg\L|	.	4E-\	-men	4g\	-men	4b-\	-men	4ee-\	-men	4G/	.	4e-\	.	4ee-\	.	4gg\	.
.	.	.	8B-/	.	8B-/yy|	.	(16g\L	.	.	.	.	.	.	.	.	.	.	.	.	.	.	.	.	.
.	.	.	.	.	.	.	16b-\JJ)	.	.	.	.	.	.	.	.	.	.	.	.	.	.	.	.	.
8G\L	6_	.	8e-/	.	8g/yy|	.	8ee-\L|	.	4r	.	4r	.	4r	.	4r	.	4r	.	4r	.	4r	.	4r	.
8E-\J	.	.	8e-/J	.	8B-/Jyy|	.	8gg\J|	.	.	.	.	.	.	.	.	.	.	.	.	.	.	.	.	.
!	!	!	!LO:LB:g=original	!	!	!	!LO:TX:t=P:problem=mixed beam	!	!	!	!	!	!	!	!	!	!LO:SIC:v:s=4e-/	!	!	!	!	!	!	!
4B-\	6 4	.	8e-/L	.	8g/Lyy|	.	8bb-\L|	.	4B-\	A-	4e-\	A-	4ee-\	A-	4gg\	A-	4f/	.	4g\	.	4gg\	.	4bb-\	.
.	.	.	8e-/	.	8B-/yy|	.	8b-/|	.	.	.	.	.	.	.	.	.	.	.	.	.	.	.	.	.
4BB-/	5 3	.	8d/	.	8f/yy|	.	(8bb-\	.	4BB-/	.	4f\	.	4dd\	.	4ff\	.	4B-/	.	4f\	.	4ff\	.	4aa-\	.
.	.	.	8d/J	.	8d/J)yy|	.	8aa-\J)	.	.	.	.	.	.	.	.	.	.	.	.	.	.	.	.	.
!	!	!	!	!	!	!	!	!	!	!	!	!	!	!	!	!	!	!	!	!	!LO:LB:g=original	!	!	!
=92	=92	=92	=92	=92	=92	=92	=92	=92	=92	=92	=92	=92	=92	=92	=92	=92	=92	=92	=92	=92	=92	=92	=92	=92
4E-\	.	.	4B-/	.	4b- 4e-/	.	4gg 4b- 4e-\	.	4E-\	-men	4g\	-men	4b-\	-men	4ee-\	-men	4G/	.	4e-\	.	4b-\	.	4gg\	.
4r	.	.	4r	.	4r	.	4r	.	4r	.	4r	.	4r	.	4r	.	4r	.	4r	.	4r	.	4r	.
4E-\	.	.	4B- 4E-/	.	4b- 4e- 4G/	.	4gg 4b- 4e-\	.	4E-\	A-	4e-\	A-	4b-\	A-	4gg\	A-	4G/	.	4e-\	.	4b-\	.	4gg\	.
4r	.	.	4r	.	4r	.	4r	.	4r	.	4r	.	4r	.	4r	.	4r	.	4r	.	4r	.	4r	.
=93	=93	=93	=93	=93	=93	=93	=93	=93	=93	=93	=93	=93	=93	=93	=93	=93	=93	=93	=93	=93	=93	=93	=93	=93
2E-\	.	.	2B- 2E-/	.	2b- 2e- 2G/	.	2gg 2b- 2e-\	.	2E-\	-men	2e-\	-men	2b-\	-men	2gg\	-men,	2G/	.	2e-\	.	2b-\	.	2gg\	.
2r	.	.	2r	.	2r	.	2r	.	2r	.	2r	.	2r	.	2r	.	2r	.	2r	.	2r	.	2r	.
==	==	==	==	==	==	==	==	==	==	==	==	==	==	==	==	==	==	==	==	==	==	==	==	==
*-	*-	*-	*-	*-	*-	*-	*-	*-	*-	*-	*-	*-	*-	*-	*-	*-	*-	*-	*-	*-	*-	*-	*-	*-
!!!system-decoration: [(g1)][(g2)][(g3)][(g4)]<s12>
!!!RDF**kern: > = above
!!!RDF**kern: < = below
!!!RDF**kern: | = vertical stroke
!!!ENC: Andrzej Kubiczek
!!!END: 2020-07-22
!!!ENC: Andrzej Kubiczek
!!!END: 2022-02-04
